<?xml version="1.0" encoding="UTF-8"?>
<map version="1.10" tiledversion="1.11.2" orientation="orthogonal" renderorder="right-down" width="70" height="28" tilewidth="21" tileheight="21" infinite="0" nextlayerid="7" nextobjectid="43">
 <editorsettings>
  <export target="platformer-level-one.tmj" format="json"/>
 </editorsettings>
 <tileset firstgid="1" name="kenny_tilemap_packed" tilewidth="21" tileheight="21" tilecount="900" columns="30">
  <image source="tilemap_packed.png" width="630" height="630"/>
  <tile id="10">
   <properties>
    <property name="Collides" type="bool" value="true"/>
   </properties>
   <animation>
    <frame tileid="10" duration="250"/>
    <frame tileid="549" duration="500"/>
   </animation>
  </tile>
  <tile id="11">
   <properties>
    <property name="Collides" type="bool" value="true"/>
   </properties>
  </tile>
  <tile id="40">
   <animation>
    <frame tileid="40" duration="500"/>
    <frame tileid="580" duration="500"/>
    <frame tileid="579" duration="500"/>
   </animation>
  </tile>
  <tile id="43">
   <properties>
    <property name="Collides" type="bool" value="true"/>
   </properties>
  </tile>
  <tile id="105">
   <properties>
    <property name="Collides" type="bool" value="true"/>
   </properties>
  </tile>
  <tile id="121">
   <properties>
    <property name="Collides" type="bool" value="true"/>
   </properties>
  </tile>
  <tile id="122">
   <properties>
    <property name="Collides" type="bool" value="true"/>
   </properties>
  </tile>
  <tile id="123">
   <properties>
    <property name="Collides" type="bool" value="true"/>
   </properties>
  </tile>
  <tile id="124">
   <properties>
    <property name="Collides" type="bool" value="true"/>
   </properties>
  </tile>
  <tile id="125">
   <properties>
    <property name="Collides" type="bool" value="true"/>
   </properties>
  </tile>
  <tile id="126">
   <properties>
    <property name="Collides" type="bool" value="true"/>
   </properties>
  </tile>
  <tile id="127">
   <properties>
    <property name="Collides" type="bool" value="true"/>
   </properties>
  </tile>
  <tile id="128">
   <properties>
    <property name="Collides" type="bool" value="true"/>
   </properties>
  </tile>
  <tile id="129">
   <properties>
    <property name="Collides" type="bool" value="true"/>
   </properties>
  </tile>
  <tile id="151">
   <properties>
    <property name="Collides" type="bool" value="true"/>
   </properties>
  </tile>
  <tile id="152">
   <properties>
    <property name="Collides" type="bool" value="true"/>
   </properties>
  </tile>
  <tile id="153">
   <properties>
    <property name="Collides" type="bool" value="true"/>
   </properties>
  </tile>
  <tile id="154">
   <properties>
    <property name="Collides" type="bool" value="true"/>
   </properties>
  </tile>
  <tile id="155">
   <properties>
    <property name="Collides" type="bool" value="true"/>
   </properties>
  </tile>
  <tile id="156">
   <properties>
    <property name="Collides" type="bool" value="true"/>
   </properties>
  </tile>
  <tile id="157">
   <properties>
    <property name="Collides" type="bool" value="true"/>
   </properties>
  </tile>
  <tile id="158">
   <properties>
    <property name="Collides" type="bool" value="true"/>
   </properties>
  </tile>
  <tile id="159">
   <properties>
    <property name="Collides" type="bool" value="true"/>
   </properties>
  </tile>
  <tile id="165">
   <properties>
    <property name="Collides" type="bool" value="true"/>
   </properties>
  </tile>
  <tile id="220">
   <properties>
    <property name="Collides" type="bool" value="true"/>
   </properties>
  </tile>
  <tile id="301">
   <properties>
    <property name="Collides" type="bool" value="true"/>
   </properties>
  </tile>
  <tile id="302">
   <properties>
    <property name="Collides" type="bool" value="true"/>
   </properties>
  </tile>
  <tile id="303">
   <properties>
    <property name="Collides" type="bool" value="true"/>
   </properties>
  </tile>
  <tile id="304">
   <properties>
    <property name="Collides" type="bool" value="true"/>
   </properties>
  </tile>
  <tile id="305">
   <properties>
    <property name="Collides" type="bool" value="true"/>
   </properties>
  </tile>
  <tile id="306">
   <properties>
    <property name="Collides" type="bool" value="true"/>
   </properties>
  </tile>
  <tile id="307">
   <properties>
    <property name="Collides" type="bool" value="true"/>
   </properties>
  </tile>
  <tile id="308">
   <properties>
    <property name="Collides" type="bool" value="true"/>
   </properties>
  </tile>
  <tile id="309">
   <properties>
    <property name="Collides" type="bool" value="true"/>
   </properties>
  </tile>
  <tile id="324">
   <animation>
    <frame tileid="324" duration="500"/>
    <frame tileid="325" duration="300"/>
   </animation>
  </tile>
  <tile id="331">
   <properties>
    <property name="Collides" type="bool" value="true"/>
   </properties>
  </tile>
  <tile id="332">
   <properties>
    <property name="Collides" type="bool" value="true"/>
   </properties>
  </tile>
  <tile id="333">
   <properties>
    <property name="Collides" type="bool" value="true"/>
   </properties>
  </tile>
  <tile id="334">
   <properties>
    <property name="Collides" type="bool" value="true"/>
   </properties>
  </tile>
  <tile id="335">
   <properties>
    <property name="Collides" type="bool" value="true"/>
   </properties>
  </tile>
  <tile id="336">
   <properties>
    <property name="Collides" type="bool" value="true"/>
   </properties>
  </tile>
  <tile id="337">
   <properties>
    <property name="Collides" type="bool" value="true"/>
   </properties>
  </tile>
  <tile id="338">
   <properties>
    <property name="Collides" type="bool" value="true"/>
   </properties>
  </tile>
  <tile id="339">
   <properties>
    <property name="Collides" type="bool" value="true"/>
   </properties>
  </tile>
  <tile id="361">
   <properties>
    <property name="Collides" type="bool" value="true"/>
   </properties>
  </tile>
  <tile id="362">
   <properties>
    <property name="Collides" type="bool" value="true"/>
   </properties>
  </tile>
  <tile id="363">
   <properties>
    <property name="Collides" type="bool" value="true"/>
   </properties>
  </tile>
  <tile id="364">
   <properties>
    <property name="Collides" type="bool" value="true"/>
   </properties>
  </tile>
  <tile id="365">
   <properties>
    <property name="Collides" type="bool" value="true"/>
   </properties>
  </tile>
  <tile id="366">
   <properties>
    <property name="Collides" type="bool" value="true"/>
   </properties>
  </tile>
  <tile id="367">
   <properties>
    <property name="Collides" type="bool" value="true"/>
   </properties>
  </tile>
  <tile id="368">
   <properties>
    <property name="Collides" type="bool" value="true"/>
   </properties>
  </tile>
  <tile id="369">
   <properties>
    <property name="Collides" type="bool" value="true"/>
   </properties>
  </tile>
  <tile id="370">
   <properties>
    <property name="Collides" type="bool" value="true"/>
   </properties>
  </tile>
  <tile id="371">
   <properties>
    <property name="Collides" type="bool" value="true"/>
   </properties>
  </tile>
  <tile id="372">
   <properties>
    <property name="Collides" type="bool" value="true"/>
   </properties>
  </tile>
  <tile id="391">
   <properties>
    <property name="Collides" type="bool" value="true"/>
   </properties>
  </tile>
  <tile id="392">
   <properties>
    <property name="Collides" type="bool" value="true"/>
   </properties>
  </tile>
  <tile id="393">
   <properties>
    <property name="Collides" type="bool" value="true"/>
   </properties>
  </tile>
  <tile id="394">
   <properties>
    <property name="Collides" type="bool" value="true"/>
   </properties>
  </tile>
  <tile id="395">
   <properties>
    <property name="Collides" type="bool" value="true"/>
   </properties>
  </tile>
  <tile id="396">
   <properties>
    <property name="Collides" type="bool" value="true"/>
   </properties>
  </tile>
  <tile id="397">
   <properties>
    <property name="Collides" type="bool" value="true"/>
   </properties>
  </tile>
  <tile id="398">
   <properties>
    <property name="Collides" type="bool" value="true"/>
   </properties>
  </tile>
  <tile id="399">
   <properties>
    <property name="Collides" type="bool" value="true"/>
   </properties>
  </tile>
  <tile id="400">
   <properties>
    <property name="Collides" type="bool" value="true"/>
   </properties>
  </tile>
  <tile id="401">
   <properties>
    <property name="Collides" type="bool" value="true"/>
   </properties>
  </tile>
  <tile id="402">
   <properties>
    <property name="Collides" type="bool" value="true"/>
   </properties>
  </tile>
  <tile id="418">
   <animation>
    <frame tileid="418" duration="500"/>
    <frame tileid="419" duration="500"/>
   </animation>
  </tile>
  <tile id="425">
   <properties>
    <property name="Collides" type="bool" value="true"/>
   </properties>
  </tile>
  <tile id="426">
   <properties>
    <property name="Collides" type="bool" value="true"/>
   </properties>
  </tile>
  <tile id="427">
   <properties>
    <property name="Collides" type="bool" value="true"/>
   </properties>
  </tile>
  <tile id="428">
   <properties>
    <property name="Collides" type="bool" value="true"/>
   </properties>
  </tile>
  <tile id="429">
   <properties>
    <property name="Collides" type="bool" value="true"/>
   </properties>
  </tile>
  <tile id="430">
   <properties>
    <property name="Collides" type="bool" value="true"/>
   </properties>
  </tile>
  <tile id="431">
   <properties>
    <property name="Collides" type="bool" value="true"/>
   </properties>
  </tile>
  <tile id="432">
   <properties>
    <property name="Collides" type="bool" value="true"/>
   </properties>
  </tile>
 </tileset>
 <tileset firstgid="901" name="tilemap-backgrounds_packed" tilewidth="24" tileheight="24" tilecount="24" columns="8">
  <image source="tilemap-backgrounds_packed.png" width="192" height="72"/>
 </tileset>
 <layer id="5" name="Background" width="70" height="28">
  <data encoding="csv">
902,902,902,902,902,902,902,902,902,902,902,902,902,902,902,902,902,902,902,902,902,902,902,902,902,902,902,902,902,902,902,902,902,909,910,911,912,909,910,911,911,909,902,902,902,902,902,902,902,902,902,907,908,907,908,907,907,908,907,907,908,907,908,907,907,908,907,908,907,908,
902,902,902,902,902,902,902,902,902,902,902,902,902,902,902,902,902,902,902,902,902,902,902,902,902,902,902,902,902,902,902,902,902,917,918,919,920,917,918,919,920,917,902,902,902,902,902,902,902,902,902,907,908,907,908,907,907,908,907,907,907,907,907,907,907,908,907,907,907,908,
902,909,912,911,909,911,911,912,909,910,911,912,909,902,902,902,902,902,902,902,902,902,902,902,902,902,902,902,902,902,902,902,902,902,902,902,902,902,902,902,902,902,902,902,902,902,910,909,903,911,909,915,915,915,907,916,915,915,907,915,915,916,915,916,915,915,915,916,907,915,
902,917,920,919,917,919,919,920,917,918,919,920,917,902,902,902,902,902,902,902,909,910,911,912,909,911,902,902,902,902,902,902,902,902,902,902,902,902,902,902,902,902,902,902,902,902,919,917,919,919,917,923,923,923,923,924,923,923,923,923,923,924,923,924,923,923,923,924,923,923,
902,902,902,902,902,902,902,902,902,902,902,902,902,902,902,902,902,902,902,902,917,918,919,920,917,919,902,902,902,902,902,902,902,902,902,902,902,902,902,902,902,902,902,902,902,902,902,902,902,902,902,907,907,907,908,907,907,907,908,907,907,907,907,908,907,907,907,907,908,907,
902,902,902,902,902,902,902,902,902,902,902,902,902,902,902,902,902,902,902,902,902,902,902,902,902,902,902,902,902,902,902,902,902,902,902,902,902,902,902,902,902,902,902,902,902,902,902,902,902,902,902,915,916,915,916,915,915,907,915,916,907,908,907,908,907,907,908,907,908,907,
902,902,902,902,902,902,902,902,902,902,902,902,902,902,902,902,902,902,902,902,902,902,902,902,902,902,902,902,902,902,902,902,902,902,902,902,902,902,902,902,902,911,910,909,902,902,902,902,902,902,902,923,924,923,924,923,923,923,923,924,907,908,907,908,907,907,908,907,908,907,
902,902,902,902,902,902,902,902,902,902,902,909,910,911,912,909,902,902,902,902,902,902,902,902,902,902,902,902,902,902,902,902,902,902,902,902,902,902,902,902,902,919,918,917,902,902,902,902,902,902,902,907,907,907,908,907,907,907,908,907,907,908,907,908,907,907,908,907,915,916,
902,902,902,902,902,902,902,902,902,902,902,917,918,919,920,917,902,902,902,902,902,902,902,902,902,902,902,902,902,902,902,902,902,902,902,902,902,902,902,902,902,902,902,902,902,902,902,902,902,902,902,907,907,907,908,907,907,907,908,907,907,908,907,908,907,907,908,907,923,924,
902,902,902,902,902,902,902,902,902,902,902,902,902,902,902,902,902,902,902,902,902,902,902,902,902,902,902,911,912,912,912,911,902,902,902,902,902,902,902,902,902,902,902,902,902,902,902,902,902,902,902,907,907,907,908,907,907,907,908,907,907,908,907,908,907,907,907,907,907,908,
902,902,902,902,902,902,902,902,902,902,902,902,902,902,902,902,902,902,902,902,902,902,902,902,902,902,902,919,920,920,920,919,902,902,902,902,902,902,902,902,902,902,902,902,902,902,902,902,902,902,902,907,907,908,907,907,907,907,908,907,907,908,907,907,907,907,907,908,907,908,
902,902,902,902,902,902,902,902,902,902,902,902,902,902,902,902,902,902,902,902,902,902,902,902,902,902,902,902,902,902,902,902,902,902,902,902,902,902,902,902,902,902,902,902,902,902,902,902,902,902,902,907,908,907,907,907,907,908,907,907,907,908,907,907,907,907,907,908,907,908,
902,902,902,902,902,902,902,902,902,902,902,902,902,902,902,902,902,902,902,902,902,902,902,902,902,902,902,902,902,902,902,902,902,902,902,902,902,902,902,902,902,902,902,902,902,902,902,902,902,902,902,907,908,907,908,907,907,908,907,907,908,907,907,907,907,907,907,907,907,908,
902,902,902,902,902,902,902,902,912,911,902,902,902,902,902,902,902,902,902,902,902,902,902,902,902,902,902,902,902,902,902,902,902,902,902,902,902,902,902,902,902,902,902,902,902,902,902,902,902,902,902,907,908,907,908,907,907,908,907,907,908,907,907,907,907,907,907,907,907,908,
902,902,902,902,902,902,902,902,920,919,902,902,902,902,902,902,902,902,902,902,902,902,902,902,911,912,909,909,902,902,902,902,902,902,902,902,902,902,902,902,902,902,902,902,902,902,902,902,902,902,902,907,908,907,908,907,907,907,907,907,908,907,907,907,907,907,907,907,908,908,
902,912,911,902,902,902,902,902,902,902,902,902,902,902,902,902,902,902,902,902,902,902,902,902,919,920,917,1073742733,902,902,902,902,902,902,902,902,902,902,902,902,902,902,902,902,902,902,902,902,902,902,902,907,907,907,907,907,908,907,907,907,907,907,907,907,908,907,907,907,907,908,
902,920,919,902,902,902,902,902,902,902,902,902,902,902,902,902,902,902,902,902,902,902,902,902,902,902,902,902,902,902,902,902,902,902,902,902,902,902,902,902,902,902,902,902,902,902,902,902,902,902,902,907,907,907,907,907,907,907,907,907,907,907,907,907,907,907,907,907,907,908,
902,902,902,902,902,902,902,902,902,902,902,902,902,902,902,902,902,902,902,902,902,902,902,902,902,902,902,902,902,902,902,902,902,902,902,902,902,902,902,902,902,902,902,902,902,902,902,902,902,902,902,907,907,907,907,907,907,907,907,907,907,907,907,907,907,907,907,907,907,908,
902,902,902,902,902,902,902,902,902,902,902,902,902,902,902,902,902,902,902,902,902,902,902,902,902,902,902,902,902,902,902,902,902,902,902,902,902,902,902,902,902,902,902,902,902,902,902,902,902,902,902,907,907,907,907,907,907,907,907,907,907,907,907,907,907,907,907,908,907,908,
902,902,902,902,902,902,902,902,902,902,902,902,902,902,902,902,902,902,902,902,902,902,902,902,902,902,902,902,902,902,902,902,902,902,902,902,902,902,902,902,902,902,902,902,902,902,902,902,902,902,902,907,907,907,907,907,907,907,907,907,907,907,907,907,907,907,907,907,907,908,
901,901,901,901,901,901,901,901,901,901,901,901,901,901,901,901,901,901,901,901,901,901,901,901,901,901,901,901,901,901,901,901,901,901,901,901,901,901,901,901,901,901,901,901,901,901,901,901,901,901,901,907,907,907,907,907,907,907,907,907,907,907,907,907,907,907,907,907,907,907,
901,901,901,901,901,901,901,901,901,901,901,901,901,901,901,901,901,901,901,901,901,901,901,901,901,901,901,901,901,901,901,901,901,901,901,901,901,901,901,901,901,901,901,901,901,901,901,901,901,901,901,907,907,907,907,907,907,907,907,907,907,907,907,907,907,907,907,907,907,907,
901,901,901,901,901,901,901,901,901,901,901,901,901,901,901,901,901,901,901,901,901,901,901,901,901,901,901,901,901,901,901,901,901,901,901,901,901,901,901,901,901,901,901,901,901,901,901,901,901,901,901,907,907,907,907,907,907,907,907,907,907,907,907,907,907,907,907,907,907,907,
901,901,901,901,901,901,901,901,901,901,901,901,901,901,901,901,901,901,901,901,901,901,901,901,901,901,901,901,901,901,901,901,901,901,901,901,901,901,901,901,901,901,901,901,901,901,901,901,901,901,901,907,907,907,907,907,907,907,907,907,907,907,907,907,907,907,907,907,907,907,
901,901,901,901,901,901,901,901,901,901,901,901,901,901,901,901,901,901,901,901,901,901,901,901,901,901,901,901,901,901,901,901,901,901,901,901,901,901,901,901,901,901,901,901,901,901,901,901,901,901,901,907,907,907,907,907,907,907,907,907,907,907,907,907,907,907,907,907,907,907,
901,901,901,901,901,901,901,901,901,901,901,901,901,901,901,901,901,901,901,901,901,901,901,901,901,901,901,901,901,901,901,901,901,901,901,901,901,901,901,901,901,901,901,901,901,901,901,901,901,901,901,907,907,907,907,907,907,907,907,907,907,907,907,907,907,907,907,907,907,907,
901,901,901,901,901,901,901,901,901,901,901,901,901,901,901,901,901,901,901,901,901,901,901,901,901,901,901,901,901,901,901,901,901,901,901,901,901,901,901,901,901,901,901,901,901,901,901,901,901,901,901,907,907,907,907,907,907,907,907,907,907,907,907,907,907,907,907,907,907,907,
901,901,901,901,901,901,901,901,901,901,901,901,901,901,901,901,901,901,901,901,901,901,901,901,901,901,901,901,901,901,901,901,901,901,901,901,901,901,901,901,901,901,901,901,901,901,901,901,901,901,901,907,907,907,907,907,907,907,907,907,907,907,907,907,907,907,907,907,907,907
</data>
 </layer>
 <layer id="6" name="Front-Background" width="70" height="28">
  <data encoding="csv">
0,0,0,0,0,0,0,0,0,0,0,0,0,0,0,0,0,0,0,0,0,0,0,0,0,0,0,0,0,0,0,0,0,0,0,0,0,0,0,0,0,0,0,0,0,0,0,0,0,0,0,0,0,0,0,0,0,0,0,0,0,0,0,0,0,0,0,0,0,0,
0,0,0,0,0,0,0,0,0,0,0,0,0,0,0,0,0,0,0,0,0,0,0,0,0,0,0,0,0,0,0,0,0,0,0,0,0,0,0,0,0,0,0,0,0,0,0,0,0,0,0,0,0,0,0,0,0,0,0,0,0,0,0,0,0,0,0,0,0,0,
0,0,0,0,0,0,0,0,0,0,0,0,0,0,0,0,0,48,0,0,0,0,0,0,0,0,0,0,0,0,0,0,0,0,0,0,0,0,0,0,0,0,0,0,0,0,0,0,0,0,0,0,0,0,0,0,0,0,0,0,0,0,0,0,0,0,0,0,0,0,
0,0,0,0,0,0,0,0,0,0,0,0,0,0,0,0,0,0,0,0,0,0,0,0,0,0,0,0,0,48,0,0,0,0,0,0,0,0,0,0,0,0,0,0,48,0,0,0,0,0,0,0,0,0,0,0,0,0,0,0,0,0,0,0,0,0,0,0,0,0,
0,0,0,0,0,0,0,0,0,0,0,0,0,0,0,0,0,0,0,0,0,0,0,0,0,0,0,0,0,0,0,0,0,0,0,0,0,0,0,0,0,0,0,0,0,0,0,0,0,0,0,0,0,0,0,362,365,0,0,0,0,0,0,0,0,0,0,0,0,0,
0,0,0,0,0,0,0,0,0,0,0,48,0,0,0,0,0,0,0,0,0,0,0,0,0,0,0,0,0,0,0,0,0,0,0,0,0,0,0,0,0,0,0,0,0,0,0,0,0,0,0,0,0,0,0,2684354983,1610613159,0,0,0,0,0,0,0,0,47,0,0,0,0,
0,0,0,0,0,48,0,0,0,0,0,0,0,0,0,0,0,0,0,0,0,0,0,0,0,0,0,0,0,0,0,0,0,0,0,0,0,0,0,0,0,0,0,0,0,0,0,0,0,0,0,0,0,0,0,2684354983,1610613159,0,0,0,0,0,0,0,0,0,0,0,0,0,
0,0,0,0,0,0,0,0,0,0,0,0,0,0,0,0,0,0,0,0,0,0,0,48,0,0,0,0,0,0,0,0,0,48,0,0,0,0,0,0,0,0,0,661,0,0,0,0,0,0,0,0,0,0,0,2684354983,1610613159,0,0,0,0,0,0,0,0,0,0,0,0,0,
0,0,0,0,0,0,0,0,0,0,0,0,0,0,0,0,0,0,0,0,0,0,0,0,0,0,0,0,0,642,643,0,0,0,0,0,0,48,0,0,0,0,639,640,641,0,0,0,0,48,0,0,362,365,0,2684354983,1610613159,0,0,0,0,0,0,0,0,0,0,0,0,0,
0,0,0,0,0,0,0,0,0,0,0,0,0,0,0,0,0,0,0,0,0,0,0,0,0,0,0,0,639,640,640,641,0,0,0,0,0,0,0,0,0,0,669,670,671,0,0,0,0,0,0,0,0,1610613160,0,2684354983,1610613159,0,0,47,0,0,0,0,0,0,0,0,0,0,
0,0,0,0,0,0,0,0,0,0,0,0,0,0,0,0,0,0,0,0,0,0,0,0,0,0,0,639,640,640,640,640,641,0,0,0,0,0,0,0,0,0,0,632,18,0,0,362,363,365,0,0,0,1610613159,48,2684354983,1610613159,0,0,0,0,0,0,0,0,47,2147483695,2147483695,0,0,
0,0,0,0,0,0,0,0,0,0,0,0,0,0,0,0,0,0,0,0,0,0,0,0,0,0,0,669,670,670,670,640,671,0,0,0,0,0,0,0,0,0,0,0,0,0,0,0,1610613159,0,0,0,0,1610613159,0,2684354983,1610613159,0,0,0,0,0,0,0,0,0,0,0,0,0,
0,0,0,0,0,0,0,0,0,0,0,0,631,18,0,0,1610612778,44,44,44,44,44,44,2684354602,0,0,0,639,640,640,640,670,671,0,0,48,0,0,0,0,0,0,0,0,0,0,0,0,1610613159,0,0,0,0,1610613160,0,2684354983,1610613159,0,0,0,0,0,48,0,0,0,0,0,0,0,
0,0,0,0,0,0,0,0,0,0,0,639,640,641,0,0,0,0,0,0,0,0,0,0,0,0,0,639,640,640,640,640,641,0,0,0,0,0,0,0,0,0,0,0,0,0,0,0,1610613159,0,0,362,365,1610613160,0,2684354983,1610613159,0,0,0,0,0,0,0,0,0,0,0,0,0,
0,0,0,0,0,0,0,0,0,0,0,669,670,671,0,0,0,0,0,0,0,0,0,0,0,0,0,669,670,670,670,670,671,0,0,0,0,0,0,0,0,0,0,0,0,0,0,0,1610613159,0,0,0,1610613159,1610613160,0,2684354983,1610613159,0,0,0,0,0,0,0,0,0,0,0,0,0,
0,0,0,0,0,18,0,0,0,0,0,0,632,0,0,0,0,18,18,0,0,0,0,0,0,0,0,0,635,636,636,636,109,0,0,0,0,0,0,0,0,0,0,0,0,0,0,0,0,0,109,0,1610613159,1610613159,0,2684354983,1610613159,0,0,0,0,0,0,254,0,419,0,0,0,0,
0,0,0,0,0,0,0,0,0,0,0,0,0,0,0,0,0,0,0,0,0,0,0,0,0,0,0,0,0,0,0,0,0,0,0,0,0,0,0,0,0,0,0,0,0,0,0,0,0,0,0,0,0,0,0,0,0,0,0,0,0,0,0,0,0,0,0,0,0,0,
0,0,0,0,0,0,0,0,0,0,0,0,0,0,0,0,0,0,0,0,0,0,0,0,0,0,0,0,0,0,0,0,0,0,0,0,0,0,0,0,0,0,0,0,0,0,0,0,0,0,0,0,0,0,0,0,0,0,0,0,0,0,0,0,0,0,0,0,0,0,
0,0,0,0,0,0,0,0,0,0,0,0,0,0,0,0,0,0,0,0,0,0,0,0,0,0,0,0,0,0,0,0,0,0,0,0,0,0,0,0,0,0,0,0,0,0,0,0,0,0,0,0,0,0,0,0,0,0,0,0,0,0,0,0,0,0,0,0,0,0,
0,0,0,0,0,0,0,0,0,0,0,0,0,0,0,0,0,0,0,0,0,0,0,0,0,0,0,0,0,0,0,0,0,0,0,0,0,0,0,0,0,0,0,0,0,0,0,0,0,0,0,0,0,0,0,0,0,0,0,0,0,0,0,0,0,0,0,0,0,0,
0,0,0,0,0,0,0,0,0,0,0,0,0,0,0,0,0,0,0,0,0,0,0,0,0,0,0,0,0,0,0,0,0,0,0,0,0,0,0,0,0,0,0,0,0,0,0,0,0,0,0,0,0,0,0,0,0,0,0,0,0,0,0,0,0,0,0,0,0,0,
0,0,0,0,0,0,0,0,0,0,0,0,0,0,0,0,0,0,0,0,0,0,0,0,0,0,0,0,0,0,0,0,0,0,0,0,0,0,0,0,0,0,0,0,0,0,0,0,0,0,0,0,0,0,0,0,0,0,0,0,0,0,0,0,0,0,0,0,0,0,
0,0,0,0,0,0,0,0,0,0,0,0,0,0,0,0,0,0,0,0,0,0,0,0,0,0,0,0,0,0,0,0,0,0,0,0,0,0,0,0,0,0,0,0,0,0,0,0,0,0,0,0,0,0,0,0,0,0,0,0,0,0,0,0,0,0,0,0,0,0,
0,0,0,0,0,0,0,0,0,0,0,0,0,0,0,0,0,0,0,0,0,0,0,0,0,0,0,0,0,0,0,0,0,0,0,0,0,0,0,0,0,0,0,0,0,0,0,0,0,0,0,0,0,0,0,0,0,0,0,0,0,0,0,0,0,0,0,0,0,0,
0,0,0,0,0,0,0,0,0,0,0,0,0,0,0,0,0,0,0,0,0,0,0,0,0,0,0,0,0,0,0,0,0,0,0,0,0,0,0,0,0,0,0,0,0,0,0,0,0,0,0,0,0,0,0,0,0,0,0,0,0,0,0,0,0,0,0,0,0,0,
0,0,0,0,0,0,0,0,0,0,0,0,0,0,0,0,0,0,0,0,0,0,0,0,0,0,0,0,0,0,0,0,0,0,0,0,0,0,0,0,0,0,0,0,0,0,0,0,0,0,0,0,0,0,0,0,0,0,0,0,0,0,0,0,0,0,0,0,0,0,
0,0,0,0,0,0,0,0,0,0,0,0,0,0,0,0,0,0,0,0,0,0,0,0,0,0,0,0,0,0,0,0,0,0,0,0,0,0,0,0,0,0,0,0,0,0,0,0,0,0,0,0,0,0,0,0,0,0,0,0,0,0,0,0,0,0,0,0,0,0,
0,0,0,0,0,0,0,0,0,0,0,0,0,0,0,0,0,0,0,0,0,0,0,0,0,0,0,0,0,0,0,0,0,0,0,0,0,0,0,0,0,0,0,0,0,0,0,0,0,0,0,0,0,0,0,0,0,0,0,0,0,0,0,0,0,0,0,0,0,0
</data>
 </layer>
 <layer id="1" name="Ground-n-Platforms" width="70" height="28">
  <data encoding="csv">
2684354684,0,0,0,0,0,0,0,0,0,0,0,0,0,0,0,0,0,0,0,0,0,0,0,0,0,0,0,0,0,0,0,0,0,0,0,0,0,0,0,0,0,0,0,0,0,0,0,0,0,0,0,0,0,0,0,0,0,0,0,0,0,0,0,0,0,0,0,0,1610613040,
2684354684,0,0,0,0,0,0,0,0,0,0,0,0,0,0,0,0,0,0,0,0,0,0,0,0,0,0,0,0,0,0,0,0,0,0,0,0,0,0,0,0,0,0,0,0,0,0,0,0,0,0,0,0,0,0,0,0,0,0,0,0,0,0,0,0,0,0,0,0,1610613040,
2684354684,0,0,0,0,0,0,0,0,0,0,0,0,0,0,0,0,0,0,0,0,0,0,0,0,0,0,0,0,0,0,0,0,0,0,0,0,0,152,154,0,0,0,0,0,0,0,0,0,0,0,0,0,0,0,0,0,0,0,0,0,0,0,0,0,0,0,0,0,1610613040,
2684354684,0,0,0,0,0,0,0,0,0,0,0,0,0,0,0,0,0,0,0,0,0,0,0,0,0,0,0,0,0,0,0,0,0,0,0,0,0,0,0,0,0,0,0,0,0,0,0,0,0,0,0,0,0,0,0,0,0,0,0,0,0,0,0,0,0,0,0,0,1610613040,
2684354684,0,0,0,0,0,0,0,0,0,0,0,0,0,0,0,0,0,0,0,0,0,0,0,0,0,0,0,0,0,0,0,0,152,124,154,0,0,0,0,0,0,0,0,0,0,0,0,0,0,0,0,0,0,0,3221225837,3221225834,0,0,0,0,0,0,0,0,0,0,0,0,1610613040,
2684354684,0,0,0,0,0,0,0,0,0,0,0,0,0,0,0,0,0,0,0,0,0,0,0,0,0,0,0,0,0,0,0,0,0,0,0,0,0,0,0,0,0,0,0,0,0,0,0,0,0,0,0,0,0,0,0,0,0,0,0,0,0,0,0,0,0,0,0,0,1610613040,
2684354684,0,0,0,0,0,0,0,0,0,0,0,0,0,0,0,0,0,0,0,0,0,0,0,0,0,0,0,0,0,0,0,0,0,0,0,0,0,0,0,0,0,0,0,0,0,0,0,0,0,0,0,0,0,0,0,0,0,0,0,0,0,0,0,0,0,0,0,0,1610613040,
2684354684,0,0,0,0,0,0,0,0,0,0,0,0,0,0,0,0,0,0,0,0,0,0,0,0,0,0,0,0,0,0,0,0,0,0,0,0,152,154,0,0,0,0,0,0,0,0,0,0,0,0,0,0,0,0,0,0,0,0,0,0,0,0,0,0,0,0,0,0,1610613040,
2684354684,0,0,0,0,0,0,0,0,0,0,0,0,0,0,0,0,0,0,0,0,0,0,0,0,0,0,0,0,0,0,0,0,0,0,0,0,0,0,0,0,0,0,0,0,0,0,0,0,0,0,0,3221225837,3221225834,0,0,0,0,0,0,0,0,0,0,0,0,0,0,0,1610613040,
2684354684,0,0,0,0,0,0,0,0,0,0,0,0,0,0,0,0,0,0,0,0,0,0,0,0,0,0,0,0,0,0,0,0,0,0,0,0,0,0,0,0,0,0,0,0,0,0,0,0,0,0,0,0,0,0,0,0,0,0,0,0,0,0,0,0,0,0,0,0,1610613040,
2684354684,0,0,0,0,0,0,0,0,0,0,0,0,0,0,0,0,0,0,0,0,0,0,0,0,0,0,0,0,0,0,0,0,0,0,0,0,0,0,0,0,0,0,0,0,0,0,3221225837,3221225835,3221225834,0,0,0,0,0,0,0,0,0,0,0,0,0,0,0,0,0,0,0,1610613040,
2684354684,0,0,0,0,0,0,0,0,0,0,0,0,0,0,0,0,0,0,0,0,0,0,0,0,0,0,0,0,0,0,0,0,0,0,0,0,0,152,124,154,127,124,124,124,128,0,0,0,0,0,0,0,0,0,0,0,0,0,0,0,0,0,0,0,0,0,0,0,1610613040,
2684354684,0,0,0,0,0,0,0,0,0,0,0,0,0,0,0,0,0,0,0,0,0,0,0,0,0,0,0,0,0,0,0,0,0,0,0,0,0,0,153,127,157,153,153,153,158,128,0,0,0,0,0,0,0,0,0,0,0,0,0,0,0,0,0,0,0,0,0,0,1610613040,
2684354684,0,0,0,0,0,0,0,0,0,0,0,0,126,124,124,156,332,304,304,304,304,334,0,0,0,0,0,0,0,0,0,0,0,0,0,0,0,0,153,157,153,153,153,153,153,158,128,0,0,0,3221225837,3221225834,0,0,0,0,0,0,0,0,0,0,0,0,0,0,0,0,1610613040,
2684354684,0,0,0,0,0,0,0,0,0,0,0,0,0,153,153,0,0,333,333,333,333,0,0,0,0,0,0,0,0,0,0,0,0,0,152,124,154,127,153,153,153,153,153,153,153,153,158,128,0,0,0,0,0,0,0,0,0,0,0,0,0,0,0,0,0,0,0,0,1610613040,
2684354684,0,0,0,0,0,256,0,0,0,0,0,0,0,153,153,0,0,333,333,333,333,0,0,0,0,0,0,0,0,0,0,0,0,0,0,153,127,157,153,153,153,153,153,153,153,153,153,158,128,0,0,0,0,0,0,0,0,0,0,0,0,0,0,0,0,0,0,0,1610613040,
123,124,124,124,124,124,124,124,124,124,124,124,124,124,153,153,124,124,124,124,125,333,0,0,0,123,124,124,124,124,124,124,124,124,124,124,153,157,153,153,153,153,153,153,153,153,153,153,153,158,124,124,124,124,124,124,124,124,124,124,124,124,124,124,124,125,0,0,0,1610613040,
153,153,153,153,153,153,153,153,153,153,153,153,153,153,153,153,153,153,153,153,153,333,0,0,0,153,153,153,153,153,153,153,153,153,153,153,153,153,153,153,153,153,153,153,153,153,153,153,153,153,153,153,153,153,153,153,153,153,153,153,153,153,153,153,153,153,0,0,0,1610613040,
153,153,153,153,153,153,153,153,153,153,153,153,153,153,153,153,153,153,153,153,153,333,0,0,0,153,153,153,153,153,153,153,153,153,153,153,153,153,153,153,153,153,153,153,153,153,153,153,153,153,153,153,153,153,153,153,153,153,153,153,153,153,153,153,153,153,0,0,0,1610613040,
153,153,153,153,153,153,153,153,153,153,153,153,153,153,153,153,153,153,153,153,153,333,0,0,0,153,153,153,153,153,153,153,153,153,153,153,153,153,153,153,153,153,153,153,153,153,153,153,153,153,153,153,153,153,153,153,153,153,153,153,153,153,153,153,153,153,11,11,11,1610613040,
153,153,153,153,153,153,153,153,153,153,153,153,153,153,153,153,153,153,153,153,153,333,0,0,0,153,153,153,153,153,153,153,153,153,153,153,153,153,153,153,153,153,153,153,153,153,153,153,153,153,153,153,153,153,153,153,153,153,153,153,153,153,153,153,153,33,41,41,41,1610613040,
153,153,153,153,153,153,153,153,153,153,153,153,153,153,153,153,153,153,153,153,153,333,0,0,0,153,153,153,153,153,153,153,153,153,153,153,153,153,153,153,153,153,153,153,153,153,153,153,153,153,153,153,153,153,153,153,153,153,153,153,153,153,153,153,153,33,41,41,41,1610613040,
153,153,153,153,153,153,153,153,153,153,153,153,153,153,153,153,153,153,153,153,153,333,0,0,0,153,153,153,153,153,153,153,153,153,153,153,153,153,153,153,153,153,153,153,153,153,153,153,153,153,153,153,153,153,153,153,153,153,153,153,153,153,153,153,153,33,41,41,41,1610613040,
153,153,153,153,153,153,153,153,153,153,153,153,153,153,153,153,153,153,153,153,153,333,0,0,0,153,153,153,153,153,153,153,153,153,153,153,153,153,153,153,153,153,153,153,153,153,153,153,153,153,153,153,153,153,153,153,153,153,153,153,153,153,153,153,153,33,41,41,41,1610613040,
153,153,153,153,153,153,153,153,153,153,153,153,153,153,153,153,153,153,153,153,153,333,0,0,0,153,153,153,153,153,153,153,153,153,153,153,153,153,153,153,153,153,153,153,153,153,153,153,153,153,153,153,153,153,153,153,153,153,153,153,153,153,153,153,153,153,41,41,41,41,
153,153,153,153,153,153,153,153,153,153,153,153,153,153,153,153,153,153,153,153,153,333,0,0,0,153,153,153,153,153,153,153,153,153,153,153,153,153,153,153,153,153,153,153,153,153,153,153,153,153,153,153,153,153,153,153,153,153,153,153,153,153,153,153,153,153,41,41,41,41,
153,153,153,153,153,153,153,153,153,153,153,153,153,153,153,153,153,153,153,153,153,333,0,0,0,153,153,153,153,153,153,153,153,153,153,153,153,153,153,153,153,153,153,153,153,153,153,153,153,153,153,153,153,153,153,153,153,153,153,153,153,153,153,153,153,153,41,41,41,41,
153,153,153,153,153,153,153,153,153,153,153,153,153,153,153,153,153,153,153,153,153,333,0,0,0,153,153,153,153,153,153,153,153,153,153,153,153,153,153,153,153,153,153,153,153,153,153,153,153,153,153,153,153,153,153,153,153,153,153,153,153,153,153,153,153,153,41,41,41,41
</data>
 </layer>
 <objectgroup id="3" name="Objects">
  <object id="2" name="worm" gid="325" x="306" y="263" width="21" height="21"/>
  <object id="8" name="worm" gid="325" x="902.667" y="201" width="21" height="21"/>
  <object id="9" name="button" gid="106" x="1277.33" y="336.333" width="21" height="21"/>
  <object id="14" name="worm" gid="325" x="1101.33" y="144.333" width="21" height="21"/>
  <object id="15" name="worm" gid="325" x="1102" y="120.333" width="21" height="21"/>
  <object id="17" name="worm" gid="325" x="1276.67" y="290.333" width="21" height="21"/>
  <object id="18" name="worm" gid="325" x="1166" y="76.3333" width="21" height="21"/>
  <object id="19" name="worm" gid="325" x="1166.67" y="57" width="21" height="21"/>
  <object id="21" name="worm" gid="325" x="1166" y="37" width="21" height="21"/>
  <object id="25" name="worm" gid="325" x="992.667" y="196.333" width="21" height="21"/>
  <object id="26" name="worm" gid="325" x="1020.67" y="196.333" width="21" height="21"/>
  <object id="27" name="worm" gid="325" x="556.667" y="248.333" width="21" height="21"/>
  <object id="29" name="worm" gid="325" x="712.667" y="74.3333" width="21" height="21"/>
  <object id="30" name="worm" gid="325" x="808.667" y="29" width="21" height="21"/>
  <object id="31" name="block" gid="221" x="1344" y="336.333" width="21" height="21"/>
  <object id="32" name="block" gid="221" x="1344" y="314.333" width="21" height="21"/>
  <object id="33" name="block" gid="221" x="1344.67" y="292.333" width="21" height="21"/>
  <object id="34" name="block" gid="221" x="1344.67" y="270.333" width="21" height="21"/>
  <object id="36" name="block" gid="221" x="1344.67" y="247.667" width="21" height="21"/>
  <object id="37" name="block" gid="221" x="1344" y="225.667" width="21" height="21"/>
  <object id="38" name="block" gid="221" x="1344" y="203.667" width="21" height="21"/>
  <object id="39" name="block" gid="221" x="1344" y="181" width="21" height="21"/>
  <object id="40" name="block" gid="221" x="1343.33" y="158.333" width="21" height="21"/>
 </objectgroup>
</map>
