<?xml version="1.0" encoding="UTF-8"?>
<map version="1.10" tiledversion="1.11.2" orientation="orthogonal" renderorder="right-down" width="60" height="34" tilewidth="21" tileheight="21" infinite="0" nextlayerid="2" nextobjectid="1">
 <editorsettings>
  <export target="platformer-level-two.tmj" format="json"/>
 </editorsettings>
 <tileset firstgid="1" name="water_tilemap_packed" tilewidth="21" tileheight="21" tilecount="900" columns="30">
  <image source="tilemap_packed.png" width="630" height="630"/>
 </tileset>
 <layer id="1" name="Background" width="60" height="34">
  <data encoding="csv">
694,695,695,695,695,695,695,695,695,695,695,695,695,695,695,695,695,695,695,695,695,695,695,695,695,695,695,695,695,695,695,695,695,695,695,695,695,695,695,695,695,695,695,695,695,695,695,695,695,695,695,695,695,695,695,695,695,695,695,696,
694,695,695,695,695,695,695,695,695,695,695,695,695,695,695,695,695,695,695,695,695,695,695,695,695,818,695,695,695,695,695,695,695,695,695,695,695,695,695,695,695,695,695,695,695,695,695,695,695,695,695,695,695,695,695,695,695,695,695,726,
694,695,695,695,695,695,695,695,695,695,695,695,695,695,695,695,695,695,695,695,695,695,695,695,695,818,695,695,695,695,695,695,695,695,695,695,695,695,695,695,695,695,695,695,695,695,695,695,695,695,695,695,695,695,695,695,695,695,695,726,
694,695,695,695,695,695,695,695,695,695,695,695,695,695,695,695,695,818,695,695,695,695,695,695,695,695,695,695,695,695,695,695,695,695,695,695,695,695,695,695,695,695,695,818,695,695,695,695,695,695,695,695,695,695,695,695,695,695,695,726,
694,695,695,695,695,695,695,695,695,695,695,695,695,695,695,695,818,818,695,695,695,695,695,695,695,695,695,818,695,695,695,695,695,695,695,695,695,695,695,695,695,695,695,695,695,695,695,695,695,695,695,695,695,695,695,695,695,695,695,726,
694,695,695,695,695,695,695,695,695,695,695,695,695,695,695,695,818,695,695,695,695,695,695,695,695,695,818,818,695,695,695,695,695,695,695,695,695,818,695,695,695,695,695,695,695,695,695,695,695,695,695,695,695,695,695,695,695,695,695,726,
694,695,695,695,695,695,695,695,695,695,695,695,695,695,695,695,818,695,695,695,695,695,695,695,695,818,695,695,695,695,695,818,695,695,695,695,695,695,818,818,695,695,695,695,695,695,695,695,818,818,818,818,695,695,695,695,695,695,695,726,
694,695,695,695,695,695,695,695,818,695,695,695,695,695,695,695,695,695,695,695,695,695,695,695,695,695,695,695,695,695,695,695,695,695,695,695,695,695,695,695,818,818,695,695,695,695,695,695,695,695,695,695,695,695,695,695,695,695,695,726,
694,695,695,695,695,695,695,695,818,695,695,695,695,695,695,695,695,695,695,695,695,695,695,695,695,695,695,695,695,695,695,695,695,695,695,695,695,695,695,695,695,695,695,695,695,695,695,695,695,695,695,695,695,695,695,695,695,695,695,726,
694,695,695,695,695,695,695,695,818,695,695,695,695,695,695,695,695,695,695,695,695,695,695,695,695,695,695,695,695,695,695,695,695,695,695,695,695,695,695,695,695,695,695,695,695,695,695,695,695,695,695,695,695,695,695,695,695,695,695,726,
694,695,695,695,695,695,695,695,818,695,695,695,695,695,695,695,695,695,695,818,695,695,695,695,695,695,818,695,695,695,695,695,695,695,695,695,695,695,695,695,695,695,695,695,695,695,695,695,695,695,695,695,695,695,695,695,695,695,695,726,
694,695,695,695,695,695,695,695,818,695,695,695,695,695,695,695,695,695,695,695,695,695,695,695,695,695,695,818,818,695,695,695,695,695,695,695,695,695,818,695,695,695,695,695,695,695,695,695,695,695,695,695,695,695,695,695,695,695,695,726,
694,695,695,695,695,695,695,695,695,695,695,695,695,695,695,695,695,695,695,695,695,695,695,695,695,695,695,695,695,818,818,695,695,695,818,818,695,695,818,818,695,695,695,695,695,695,695,695,695,695,695,695,695,695,695,695,695,695,695,726,
694,695,695,695,695,695,695,695,695,695,695,695,695,695,818,695,695,695,695,818,818,695,695,695,695,695,695,695,695,695,818,818,695,695,695,695,695,695,695,818,695,695,695,695,695,695,818,695,695,695,695,695,695,695,695,695,695,695,695,726,
694,695,695,695,695,695,695,695,695,695,695,695,695,695,818,818,695,695,818,818,695,695,695,695,695,695,695,695,695,695,695,695,695,695,695,695,695,695,695,695,818,695,695,695,695,818,818,695,695,695,695,695,695,695,818,695,695,695,695,726,
694,695,695,695,695,695,695,695,695,695,695,695,695,695,695,818,818,695,695,695,695,695,695,695,695,695,695,695,695,695,695,695,695,695,695,695,695,695,695,695,818,818,695,695,695,818,695,695,695,695,695,695,695,695,818,695,695,695,695,726,
694,695,695,695,695,695,695,695,695,695,695,695,695,695,695,695,695,818,695,695,695,695,695,695,695,695,695,695,695,695,695,695,818,818,818,695,695,695,695,695,695,695,695,695,695,695,695,695,695,695,695,695,695,695,695,695,695,695,695,726,
694,695,695,695,695,695,695,695,695,695,695,695,695,695,695,695,695,695,818,818,695,695,695,695,695,695,695,695,695,818,818,818,695,695,695,695,695,695,695,695,695,695,695,695,695,695,695,695,695,695,695,695,695,695,695,695,695,695,695,726,
694,695,695,695,695,695,695,695,695,695,695,695,695,695,818,695,695,695,695,695,695,695,695,695,695,695,695,818,818,695,695,695,695,695,695,695,695,695,695,695,818,818,695,695,695,695,695,695,695,695,695,695,695,695,695,695,695,695,695,726,
694,695,695,695,695,818,695,695,695,695,695,695,695,695,695,695,695,695,695,695,695,695,695,695,695,818,818,695,695,695,695,695,695,695,695,695,695,695,695,695,818,695,695,695,695,695,695,695,818,695,695,695,695,695,695,695,695,695,695,726,
694,695,695,695,695,818,695,695,695,695,695,695,695,695,695,695,695,695,695,695,695,695,695,695,695,695,695,695,695,695,695,695,695,818,695,695,695,695,695,695,818,695,695,695,695,695,695,695,695,695,695,695,695,695,695,695,695,695,695,726,
694,695,695,695,695,818,695,695,695,695,695,695,695,695,695,695,695,695,695,695,695,818,695,695,695,695,695,695,695,695,695,695,695,818,818,695,695,695,695,695,818,695,695,695,695,695,695,695,695,695,695,695,695,695,695,695,695,695,695,726,
694,695,695,695,695,695,818,695,695,695,695,695,695,695,695,695,695,695,695,695,695,695,695,695,695,695,695,695,695,695,695,695,695,695,818,695,695,695,695,695,695,695,695,695,695,695,695,695,695,695,695,695,695,695,695,695,695,695,695,726,
694,695,695,695,695,695,818,818,695,695,695,695,695,695,695,695,695,695,695,695,695,695,695,695,695,695,695,818,695,695,695,695,695,695,695,695,695,695,695,695,695,695,695,695,695,695,695,818,695,695,695,695,695,695,695,695,695,695,695,726,
694,695,695,695,695,695,695,818,818,695,695,695,695,695,695,695,695,695,695,695,695,695,695,695,695,695,695,695,695,695,695,695,695,695,695,695,695,695,695,695,818,695,695,695,695,695,695,695,695,695,695,695,695,695,695,695,695,695,695,726,
694,695,695,695,695,695,695,695,695,695,818,818,695,695,695,695,695,695,695,695,695,695,695,695,695,695,695,695,695,695,695,695,695,695,695,695,695,695,695,818,818,695,695,695,695,695,695,695,695,695,695,695,695,695,695,695,695,695,695,726,
694,695,695,695,695,695,695,695,695,695,695,818,818,818,818,818,695,695,695,695,695,695,695,695,695,695,695,695,695,695,695,695,695,695,695,695,695,695,695,695,695,695,695,695,695,695,695,695,695,695,695,695,695,695,695,695,695,695,695,726,
694,695,695,695,695,695,695,695,695,695,695,695,695,695,695,695,818,818,695,695,695,695,818,695,695,695,695,695,695,695,695,695,695,695,695,695,695,695,695,695,695,695,695,695,695,695,818,695,695,695,695,695,695,695,695,695,695,695,695,726,
694,695,695,695,695,695,695,695,695,695,695,695,695,695,695,695,695,695,695,695,695,695,818,818,695,695,695,695,695,695,695,695,695,695,695,695,695,695,695,695,695,695,695,695,818,818,695,695,695,695,695,818,818,695,695,695,695,695,695,726,
694,695,695,695,695,695,695,695,695,695,695,695,695,695,695,695,695,695,695,695,695,695,695,818,695,695,695,695,695,695,818,818,818,818,695,695,695,695,695,695,695,695,818,818,818,695,695,695,695,695,695,818,695,695,695,695,695,695,695,726,
694,695,695,695,695,695,695,695,695,695,695,695,695,695,695,695,695,695,695,695,695,695,695,695,695,695,695,695,695,695,818,695,695,695,695,695,695,695,695,695,695,695,695,695,695,695,695,695,695,695,695,695,695,695,695,695,695,695,695,726,
694,695,695,695,695,695,695,695,695,695,695,695,695,695,695,695,695,695,695,695,695,695,695,695,695,695,695,695,695,695,695,695,695,695,695,695,695,695,695,695,695,695,695,695,695,695,695,695,695,695,695,695,695,695,695,695,695,695,695,726,
694,695,695,695,695,695,695,695,695,695,695,695,695,695,695,695,695,695,695,695,695,695,695,695,695,695,695,695,695,695,695,695,695,695,695,695,695,695,695,695,695,695,695,695,695,695,695,695,695,695,695,695,695,695,695,695,695,695,695,726,
754,755,755,755,755,755,755,755,755,755,755,755,755,755,755,755,755,755,755,755,755,755,755,755,755,755,755,755,755,755,755,755,755,755,755,755,755,755,755,755,755,755,755,755,755,755,755,755,755,755,755,755,755,755,755,755,755,755,755,756
</data>
 </layer>
</map>
