<?xml version="1.0" encoding="UTF-8"?>
<map version="1.10" tiledversion="1.11.2" orientation="orthogonal" renderorder="right-down" width="80" height="22" tilewidth="18" tileheight="18" infinite="0" nextlayerid="5" nextobjectid="5">
 <editorsettings>
  <export target="platformer-level-two.tmj" format="json"/>
 </editorsettings>
 <tileset firstgid="1" name="tilemap2_packed" tilewidth="18" tileheight="18" tilecount="180" columns="20">
  <image source="../Spritesheets/tilemap2_packed.png" width="360" height="162"/>
  <tile id="0">
   <properties>
    <property name="Collides" type="bool" value="true"/>
   </properties>
  </tile>
  <tile id="1">
   <properties>
    <property name="Collides" type="bool" value="true"/>
   </properties>
  </tile>
  <tile id="2">
   <properties>
    <property name="Collides" type="bool" value="true"/>
   </properties>
  </tile>
  <tile id="3">
   <properties>
    <property name="Collides" type="bool" value="true"/>
   </properties>
  </tile>
  <tile id="12">
   <properties>
    <property name="Collides" type="bool" value="true"/>
   </properties>
  </tile>
  <tile id="13">
   <properties>
    <property name="Collides" type="bool" value="true"/>
   </properties>
  </tile>
  <tile id="14">
   <properties>
    <property name="Collides" type="bool" value="true"/>
   </properties>
  </tile>
  <tile id="15">
   <properties>
    <property name="Collides" type="bool" value="true"/>
   </properties>
  </tile>
  <tile id="20">
   <properties>
    <property name="Collides" type="bool" value="true"/>
   </properties>
  </tile>
  <tile id="21">
   <properties>
    <property name="Collides" type="bool" value="true"/>
   </properties>
  </tile>
  <tile id="22">
   <properties>
    <property name="Collides" type="bool" value="true"/>
   </properties>
  </tile>
  <tile id="23">
   <properties>
    <property name="Collides" type="bool" value="true"/>
   </properties>
  </tile>
  <tile id="40">
   <properties>
    <property name="Collides" type="bool" value="true"/>
   </properties>
  </tile>
  <tile id="41">
   <properties>
    <property name="Collides" type="bool" value="true"/>
   </properties>
  </tile>
  <tile id="42">
   <properties>
    <property name="Collides" type="bool" value="true"/>
   </properties>
  </tile>
  <tile id="43">
   <properties>
    <property name="Collides" type="bool" value="true"/>
   </properties>
  </tile>
  <tile id="44">
   <animation>
    <frame tileid="44" duration="140"/>
    <frame tileid="46" duration="140"/>
   </animation>
  </tile>
  <tile id="47">
   <properties>
    <property name="Collides" type="bool" value="true"/>
   </properties>
  </tile>
  <tile id="48">
   <properties>
    <property name="Collides" type="bool" value="true"/>
   </properties>
  </tile>
  <tile id="49">
   <properties>
    <property name="Collides" type="bool" value="true"/>
   </properties>
  </tile>
  <tile id="50">
   <properties>
    <property name="Collides" type="bool" value="true"/>
   </properties>
  </tile>
  <tile id="60">
   <properties>
    <property name="Collides" type="bool" value="true"/>
   </properties>
  </tile>
  <tile id="61">
   <properties>
    <property name="Collides" type="bool" value="true"/>
   </properties>
  </tile>
  <tile id="62">
   <properties>
    <property name="Collides" type="bool" value="true"/>
   </properties>
  </tile>
  <tile id="63">
   <properties>
    <property name="Collides" type="bool" value="true"/>
   </properties>
  </tile>
  <tile id="80">
   <properties>
    <property name="Collides" type="bool" value="true"/>
   </properties>
  </tile>
  <tile id="81">
   <properties>
    <property name="Collides" type="bool" value="true"/>
   </properties>
  </tile>
  <tile id="82">
   <properties>
    <property name="Collides" type="bool" value="true"/>
   </properties>
  </tile>
  <tile id="83">
   <properties>
    <property name="Collides" type="bool" value="true"/>
   </properties>
  </tile>
  <tile id="100">
   <properties>
    <property name="Collides" type="bool" value="true"/>
   </properties>
  </tile>
  <tile id="101">
   <properties>
    <property name="Collides" type="bool" value="true"/>
   </properties>
  </tile>
  <tile id="102">
   <properties>
    <property name="Collides" type="bool" value="true"/>
   </properties>
  </tile>
  <tile id="103">
   <properties>
    <property name="Collides" type="bool" value="true"/>
   </properties>
  </tile>
  <tile id="111">
   <animation>
    <frame tileid="111" duration="140"/>
    <frame tileid="112" duration="140"/>
   </animation>
  </tile>
  <tile id="120">
   <properties>
    <property name="Collides" type="bool" value="true"/>
   </properties>
  </tile>
  <tile id="121">
   <properties>
    <property name="Collides" type="bool" value="true"/>
   </properties>
  </tile>
  <tile id="122">
   <properties>
    <property name="Collides" type="bool" value="true"/>
   </properties>
  </tile>
  <tile id="123">
   <properties>
    <property name="Collides" type="bool" value="true"/>
   </properties>
  </tile>
  <tile id="140">
   <properties>
    <property name="Collides" type="bool" value="true"/>
   </properties>
  </tile>
  <tile id="141">
   <properties>
    <property name="Collides" type="bool" value="true"/>
   </properties>
  </tile>
  <tile id="142">
   <properties>
    <property name="Collides" type="bool" value="true"/>
   </properties>
  </tile>
  <tile id="143">
   <properties>
    <property name="Collides" type="bool" value="true"/>
   </properties>
  </tile>
 </tileset>
 <tileset firstgid="181" name="tilemap-backgrounds_packed" tilewidth="24" tileheight="24" tilecount="24" columns="8">
  <image source="../Spritesheets/tilemap-backgrounds_packed.png" width="192" height="72"/>
 </tileset>
 <layer id="1" name="Backgroundlv2" width="80" height="22">
  <data encoding="csv">
187,188,187,188,187,188,187,188,187,188,187,188,187,188,187,188,187,188,187,188,187,188,187,188,187,188,187,188,187,188,187,188,187,188,187,188,187,188,187,188,187,188,187,188,187,188,187,188,187,188,187,188,187,188,187,188,187,188,187,188,187,188,187,188,187,188,187,188,187,188,187,188,187,188,187,188,187,188,187,188,
187,188,187,188,187,188,187,188,187,188,187,188,187,188,187,188,187,188,187,188,187,188,187,188,187,188,187,188,187,188,187,188,187,188,187,188,187,188,187,188,187,188,187,188,187,188,187,188,187,188,187,188,187,188,187,188,187,188,187,188,187,188,187,188,187,188,187,188,187,188,187,188,187,188,187,188,187,188,187,188,
187,188,187,188,187,188,187,188,187,188,187,188,187,188,187,188,187,188,187,188,187,188,187,188,187,188,187,188,187,188,187,188,187,188,187,188,187,188,187,188,187,188,187,188,187,188,187,188,187,188,187,188,187,188,187,188,187,188,187,188,187,188,187,188,187,188,187,188,187,188,187,188,187,188,187,188,187,188,187,188,
187,188,187,188,187,188,187,188,187,188,187,188,187,188,187,188,187,188,187,188,187,188,187,188,187,188,187,188,187,188,187,188,187,188,187,188,187,188,187,188,187,188,187,188,187,188,187,188,187,188,187,188,187,188,187,188,187,188,187,188,187,188,187,188,187,188,187,188,187,188,187,188,187,188,187,188,187,188,187,188,
187,188,187,188,187,188,187,188,187,188,187,188,187,188,187,188,187,188,187,188,187,188,187,188,187,188,187,188,187,188,187,188,187,188,187,188,187,188,187,188,187,188,187,188,187,188,187,188,187,188,187,188,187,188,187,188,187,188,187,188,187,188,187,188,187,188,187,188,187,188,187,188,187,188,187,188,187,188,187,188,
187,188,187,188,187,188,187,188,187,188,187,188,187,188,187,188,187,188,187,188,187,188,187,188,187,188,187,188,187,188,187,188,187,188,187,188,187,188,187,188,187,188,187,188,187,188,187,188,187,188,187,188,187,188,187,188,187,188,187,188,187,188,187,188,187,188,187,188,187,188,187,188,187,188,187,188,187,188,187,188,
187,188,187,188,187,188,187,188,187,188,187,188,187,188,187,188,187,188,187,188,187,188,187,188,187,188,187,188,187,188,187,188,187,188,187,188,187,188,187,188,187,188,187,188,187,188,187,188,187,188,187,188,187,188,187,188,187,188,187,188,187,188,187,188,187,188,187,188,187,188,187,188,187,188,187,188,187,188,187,188,
187,188,187,188,187,188,187,188,187,188,187,188,187,188,187,188,187,188,187,188,187,188,187,188,187,188,187,188,187,188,187,188,187,188,187,188,187,188,187,188,187,188,187,188,187,188,187,188,187,188,187,188,187,188,187,188,187,188,187,188,187,188,187,188,187,188,187,188,187,188,187,188,187,188,187,188,187,188,187,188,
187,188,187,188,187,188,187,188,187,188,187,188,187,188,187,188,187,188,187,188,187,188,187,188,187,188,187,188,187,188,187,188,187,188,187,188,187,188,187,188,187,188,187,188,187,188,187,188,187,188,187,188,187,188,187,188,187,188,187,188,187,188,187,188,187,188,187,188,187,188,187,188,187,188,187,188,187,188,187,188,
187,188,187,188,187,188,187,188,187,188,187,188,187,188,187,188,187,188,187,188,187,188,187,188,187,188,187,188,187,188,187,188,187,188,187,188,187,188,187,188,187,188,187,188,187,188,187,188,187,188,187,188,187,188,187,188,187,188,187,188,187,188,187,188,187,188,187,188,187,188,187,188,187,188,187,188,187,188,187,188,
187,188,187,188,187,188,187,188,187,188,187,188,187,188,187,188,187,188,187,188,187,188,187,188,187,188,187,188,187,188,187,188,187,188,187,188,187,188,187,188,187,188,187,188,187,188,187,188,187,188,187,188,187,188,187,188,187,188,187,188,187,188,187,188,187,188,187,188,187,188,187,188,187,188,187,188,187,188,187,188,
187,188,187,188,187,188,187,188,187,188,187,188,187,188,187,188,187,188,187,188,187,188,187,188,187,188,187,188,187,188,187,188,187,188,187,188,187,188,187,188,187,188,187,188,187,188,187,188,187,188,187,188,187,188,187,188,187,188,187,188,187,188,187,188,187,188,187,188,187,188,187,188,187,188,187,188,187,188,187,188,
187,188,187,188,187,188,187,188,187,188,187,188,187,188,187,188,187,188,187,188,187,188,187,188,187,188,187,188,187,188,187,188,187,188,187,188,187,188,187,188,187,188,187,188,187,188,187,188,187,188,187,188,187,188,187,188,187,188,187,188,187,188,187,188,187,188,187,188,187,188,187,188,187,188,187,188,187,188,187,188,
187,188,187,188,187,188,187,188,187,188,187,188,187,188,187,188,187,188,187,188,187,188,187,188,187,188,187,188,187,188,187,188,187,188,187,188,187,188,187,188,187,188,187,188,187,188,187,188,187,188,187,188,187,188,187,188,187,188,187,188,187,188,187,188,187,188,187,188,187,188,187,188,187,188,187,188,187,188,187,188,
187,188,187,188,187,188,187,188,187,188,187,188,187,188,187,188,187,188,187,188,187,188,187,188,187,188,187,188,187,188,187,188,187,188,187,188,187,188,187,188,187,188,187,188,187,188,187,188,187,188,187,188,187,188,187,188,187,188,187,188,187,188,187,188,187,188,187,188,187,188,187,188,187,188,187,188,187,188,187,188,
187,188,187,188,187,188,187,188,187,188,187,188,187,188,187,188,187,188,187,188,187,188,187,188,187,188,187,188,187,188,187,188,187,188,187,188,187,188,187,188,187,188,187,188,187,188,187,188,187,188,187,188,187,188,187,188,187,188,187,188,187,188,187,188,187,188,187,188,187,188,187,188,187,188,187,188,187,188,187,188,
195,196,195,195,195,195,195,195,196,195,196,195,195,195,195,195,195,195,195,195,195,196,195,195,195,196,195,195,195,195,195,195,195,196,196,195,195,195,195,195,195,195,195,195,195,195,195,195,196,195,196,195,195,196,195,195,195,195,195,195,195,195,196,196,195,196,195,195,195,195,195,195,195,195,196,195,195,195,195,195,
203,203,203,203,203,203,203,203,203,204,204,204,204,204,203,203,203,203,203,203,203,203,203,203,203,203,203,203,203,203,203,203,203,203,203,203,203,203,203,203,203,203,203,203,203,203,203,203,203,203,203,203,203,203,203,203,203,203,203,203,203,203,204,203,203,203,204,204,204,204,203,203,203,203,203,203,203,203,203,204,
204,204,204,204,204,204,204,204,204,204,204,204,203,204,204,204,204,204,204,204,204,204,204,204,204,204,204,204,204,204,204,204,204,204,204,204,204,204,203,204,204,204,204,204,204,204,204,203,203,203,203,203,203,203,203,203,203,204,203,204,204,204,204,204,204,204,204,204,203,204,204,204,204,204,204,204,203,203,203,203,
203,203,203,203,203,203,203,203,203,203,203,203,203,203,203,203,203,203,203,203,203,203,203,203,203,203,203,203,203,203,203,203,203,203,203,203,203,203,203,203,204,203,203,203,203,203,203,203,203,204,204,204,204,204,204,204,204,204,204,204,204,204,204,204,204,204,204,204,204,204,204,204,204,204,204,204,204,204,203,203,
204,203,203,203,204,203,204,203,204,203,204,203,203,203,203,204,203,204,203,203,203,204,203,203,204,204,203,203,203,203,204,204,204,203,203,203,203,203,203,204,204,204,203,203,203,203,203,204,204,203,203,203,203,204,204,204,204,203,203,203,204,204,204,203,203,204,204,204,204,203,204,204,204,204,204,203,204,204,204,204,
204,203,204,204,204,203,203,204,203,203,204,204,204,204,204,203,204,204,204,203,204,204,204,204,203,204,204,203,203,203,204,204,204,204,203,204,203,203,203,204,203,203,203,203,204,204,204,204,203,203,203,203,204,203,204,203,203,204,204,204,203,203,203,203,204,204,204,203,203,203,203,203,204,203,203,204,204,203,203,203
</data>
 </layer>
 <layer id="3" name="Front-Background" width="80" height="22">
  <data encoding="csv">
0,0,0,0,0,0,0,0,0,0,0,0,0,0,0,0,0,0,0,0,0,0,0,0,0,0,0,0,0,0,0,0,0,0,0,0,0,0,0,0,0,0,0,0,0,0,0,0,0,0,0,0,0,0,0,0,0,0,0,0,0,0,0,0,0,0,0,0,0,0,0,0,0,0,0,0,38,39,39,39,
0,0,0,0,0,0,0,0,0,0,0,0,0,0,0,0,0,0,0,0,0,0,0,0,0,0,0,0,0,0,0,0,0,0,0,0,0,0,0,0,0,0,0,0,0,0,0,0,0,0,0,0,0,0,0,0,0,0,0,0,0,0,0,0,0,0,0,0,0,0,0,0,0,0,0,0,38,59,39,39,
0,0,0,0,0,0,0,0,0,0,0,0,0,0,0,0,0,0,0,0,0,0,0,0,0,0,0,0,0,0,0,0,0,0,0,0,0,0,0,0,0,0,0,0,0,0,0,0,0,0,0,0,0,0,0,0,0,0,0,0,0,0,0,0,0,0,0,0,0,0,0,0,0,0,0,0,38,59,40,39,
0,0,0,0,0,0,0,0,0,0,0,0,0,0,0,0,0,0,0,0,0,0,0,0,0,0,0,0,0,0,0,0,0,0,0,0,0,0,0,0,0,0,0,0,0,0,0,0,0,0,0,0,0,0,0,0,0,0,0,0,0,0,0,0,0,0,0,0,0,0,0,0,0,0,0,0,38,39,39,39,
0,0,0,0,0,0,0,0,0,0,0,0,0,0,0,0,0,0,0,0,0,0,0,0,0,0,0,0,0,0,0,0,0,0,0,0,0,0,0,0,0,0,0,0,0,0,0,0,0,0,0,0,0,0,0,0,0,0,0,0,0,0,0,0,0,0,0,0,0,0,0,0,0,0,0,0,38,19,39,39,
0,0,0,0,0,0,0,0,0,0,0,0,0,0,0,0,0,0,0,0,0,0,0,0,0,0,0,0,0,0,0,0,0,0,0,0,0,0,0,0,0,0,0,0,0,0,0,0,0,0,0,0,0,0,0,0,0,0,0,0,0,0,0,0,0,0,0,0,0,0,0,0,0,0,0,0,38,39,39,39,
0,0,0,0,0,0,0,0,0,0,0,0,0,0,0,0,0,0,0,0,0,0,0,0,0,0,0,0,0,0,0,0,0,0,0,0,0,0,0,0,0,0,0,0,0,0,0,0,0,0,0,0,0,0,0,0,0,0,0,0,0,0,0,0,0,0,0,0,0,0,0,0,0,0,0,0,38,39,40,39,
0,0,0,0,0,0,0,0,0,0,0,0,0,0,0,0,0,0,0,0,0,0,0,0,0,0,0,0,0,0,0,0,0,0,0,0,0,0,0,0,0,0,0,0,0,0,0,0,0,0,0,0,0,0,0,0,0,0,0,0,0,0,0,0,0,0,0,0,0,0,0,0,0,0,0,0,38,39,39,39,
0,0,0,0,0,0,0,0,0,0,0,0,0,0,0,0,0,0,0,0,0,0,0,0,0,0,0,0,0,0,0,0,0,0,0,0,0,0,0,0,0,0,0,0,0,0,0,0,0,0,0,0,0,0,0,0,0,0,0,0,0,0,0,0,0,0,0,0,0,0,0,0,0,0,0,0,38,39,39,39,
0,0,0,0,0,0,0,0,0,0,0,0,0,0,0,0,0,0,0,0,0,0,0,0,0,0,0,0,0,0,0,0,0,0,0,0,0,0,0,0,0,0,0,0,0,0,0,0,0,0,0,0,0,0,0,0,0,0,0,0,0,0,0,0,0,0,0,0,0,0,0,0,0,0,0,0,38,59,39,39,
0,0,0,0,0,0,0,0,0,0,0,0,0,0,0,0,0,0,0,0,0,0,0,0,0,0,0,0,0,0,0,0,0,0,0,0,0,0,0,0,0,0,0,0,0,0,0,0,0,18,19,19,20,0,0,0,0,0,0,0,0,0,0,0,0,0,0,0,0,0,0,0,0,0,0,0,38,39,39,39,
0,0,0,0,0,0,0,0,0,0,0,0,0,0,0,0,0,0,0,0,0,0,0,0,0,0,0,0,0,0,0,0,0,0,0,0,0,0,0,0,0,0,0,0,0,0,0,0,0,38,39,39,40,0,0,0,0,0,0,0,0,0,0,0,0,0,0,0,0,0,0,0,0,0,0,0,38,39,19,39,
0,0,0,0,0,0,0,0,0,0,0,0,0,0,0,0,0,0,0,0,0,0,0,0,0,0,0,0,0,0,0,0,0,0,0,0,0,0,0,0,0,0,0,0,0,0,0,0,0,38,39,39,40,0,0,0,0,0,0,0,0,0,0,0,0,0,0,0,0,0,0,0,0,0,0,0,38,39,39,39,
0,0,0,0,0,0,0,0,0,0,0,0,0,0,0,0,0,0,0,0,0,0,0,0,0,0,0,0,0,0,0,0,0,0,0,0,0,0,0,0,0,0,0,0,0,0,0,0,0,58,98,59,60,0,0,0,0,0,0,0,0,0,0,0,0,0,0,0,0,0,0,0,0,0,0,0,38,39,59,39,
0,0,0,0,0,0,0,0,0,0,0,0,0,0,0,0,0,0,0,0,0,0,0,0,0,0,0,0,0,0,0,0,0,0,0,0,0,0,0,0,0,0,0,0,0,0,0,0,0,0,139,140,0,0,0,0,0,0,0,0,0,0,0,0,0,0,0,0,0,0,0,0,0,0,2147483780,0,38,39,39,39,
0,0,0,0,0,0,0,0,0,0,0,0,0,0,0,0,0,0,0,0,0,0,0,0,0,0,0,0,0,0,0,0,0,0,0,0,0,0,0,0,0,0,0,0,0,0,0,0,0,0,97,0,0,0,0,0,0,0,0,0,0,0,0,0,0,0,0,0,0,0,0,0,0,0,3221225604,0,58,59,98,98,
0,0,0,0,0,0,0,0,0,0,0,0,0,0,0,0,0,0,0,0,0,0,0,0,0,0,0,0,0,0,0,0,0,0,0,0,0,0,0,0,0,0,0,0,0,0,0,0,119,120,137,0,0,0,0,0,0,0,0,0,0,0,0,0,0,0,0,0,0,0,0,0,0,0,2147483780,0,0,0,117,117,
0,125,0,0,0,0,86,0,0,0,0,0,0,0,0,0,2147483773,0,0,0,0,0,0,0,0,0,0,0,0,0,2147483773,125,0,0,0,0,0,2147483774,0,0,0,0,0,0,125,0,0,0,0,0,138,0,0,0,0,0,0,0,0,126,0,0,0,0,0,0,0,0,89,0,0,0,126,125,3221225604,0,0,0,138,138,
0,0,0,0,0,0,0,0,0,0,0,0,0,0,0,0,0,0,0,0,0,0,0,0,0,0,0,0,0,0,0,0,0,0,0,0,0,0,0,0,0,0,0,0,0,0,0,0,0,0,0,0,0,0,0,0,0,0,0,0,0,0,0,0,0,0,0,0,0,0,0,0,0,0,0,0,0,0,0,0,
0,0,0,0,0,0,0,0,0,0,0,0,0,0,0,0,0,0,0,0,0,0,0,0,0,0,0,0,0,0,0,0,0,0,0,0,0,0,0,0,0,0,0,0,0,0,0,0,0,0,0,0,0,0,0,0,0,0,0,0,0,0,0,0,0,0,0,0,0,0,0,0,0,0,0,0,0,0,0,0,
0,0,0,0,0,0,0,0,0,0,0,0,0,0,0,0,0,0,0,0,0,0,0,0,0,0,0,0,0,0,0,0,0,0,0,0,0,0,0,0,0,0,0,0,0,0,0,0,0,0,0,0,0,0,0,0,0,0,0,0,0,0,0,0,0,0,0,0,0,0,0,0,0,0,0,0,0,0,0,0,
0,0,0,0,0,0,0,0,0,0,0,0,0,0,0,0,0,0,0,0,0,0,0,0,0,0,0,0,0,0,0,0,0,0,0,0,0,0,0,0,0,0,0,0,0,0,0,0,0,0,0,0,0,0,0,0,0,0,0,0,0,0,0,0,0,0,0,0,0,0,0,0,0,0,0,0,0,0,0,0
</data>
 </layer>
 <layer id="2" name="Ground-n-Platforms" width="80" height="22">
  <data encoding="csv">
0,0,0,0,0,0,0,0,0,0,0,0,0,0,0,0,0,0,0,0,0,0,0,0,0,0,0,0,0,0,0,0,0,0,0,0,0,0,0,0,0,0,0,0,0,0,0,0,0,0,0,0,0,0,0,0,0,0,0,0,0,0,0,0,0,0,0,0,0,0,0,0,0,0,0,0,0,0,0,0,
0,0,0,0,0,0,0,0,0,0,0,0,0,0,0,0,0,0,0,0,0,0,0,0,0,0,0,0,0,0,0,0,0,0,0,0,0,0,0,0,0,0,0,0,0,0,0,0,0,0,0,0,0,0,0,0,0,0,0,0,0,0,0,0,0,0,0,0,0,0,0,0,0,0,0,0,0,0,0,0,
0,0,0,0,0,0,0,0,0,0,0,0,0,0,0,0,0,0,0,0,0,0,0,0,0,0,0,0,0,0,0,0,0,0,0,0,0,0,0,0,0,0,0,0,0,0,0,0,0,0,0,0,0,0,0,0,0,0,0,0,0,0,0,0,0,0,0,0,0,0,0,0,0,0,0,0,0,0,0,0,
0,0,0,0,0,0,0,0,0,0,0,0,0,0,0,0,0,0,0,0,0,0,0,0,0,0,0,0,0,0,0,0,0,0,0,0,0,0,0,0,0,0,0,0,0,0,0,0,0,0,0,0,0,0,0,0,0,0,0,0,0,0,0,0,0,0,0,0,0,0,0,0,0,0,0,0,0,0,0,0,
0,0,0,0,0,0,0,0,0,0,0,0,0,0,0,0,0,0,0,0,0,0,0,0,0,0,0,0,0,0,0,0,0,0,0,0,0,0,0,0,0,0,0,0,0,0,0,0,0,0,0,0,0,0,0,0,0,0,0,0,0,0,0,0,0,0,0,0,0,0,0,0,0,0,0,0,0,0,0,0,
0,0,0,0,0,0,0,0,0,0,0,0,0,0,0,0,0,0,0,0,0,0,0,0,0,0,0,0,0,0,0,0,0,0,0,0,0,0,0,0,0,0,0,0,0,0,0,0,0,0,0,0,0,0,0,0,0,0,0,0,0,0,0,0,0,0,0,0,0,0,0,0,0,0,0,0,0,0,0,0,
0,0,0,0,0,0,0,0,0,0,0,0,0,0,0,0,0,0,0,0,0,0,0,0,0,0,0,0,0,0,0,0,0,0,0,0,0,0,0,0,0,0,0,0,0,0,0,0,0,0,0,0,0,0,0,0,0,0,0,0,0,0,0,0,0,0,0,0,0,0,0,0,0,0,0,0,0,0,0,0,
0,0,0,0,0,0,0,0,0,0,0,0,0,0,0,0,0,0,0,0,0,0,0,0,0,0,0,0,0,0,0,0,0,0,0,0,0,0,0,0,0,0,0,0,0,0,0,0,0,0,0,0,0,0,0,0,0,0,0,0,0,0,0,0,0,0,0,0,0,0,0,0,0,0,0,0,0,0,0,0,
0,0,0,0,0,0,0,0,0,0,0,0,0,0,0,0,0,0,0,0,0,0,0,0,0,0,0,0,0,0,0,0,0,0,0,0,0,0,0,0,0,0,0,0,0,0,0,0,0,0,0,0,0,0,0,0,0,0,0,0,0,0,0,0,0,0,0,0,0,0,0,0,0,0,0,0,0,0,0,0,
0,0,0,0,0,0,0,0,0,0,0,0,0,0,0,0,0,0,0,0,0,0,0,0,0,0,0,0,0,0,0,0,0,0,0,0,0,0,0,0,0,0,0,0,0,0,0,0,0,0,0,0,0,0,0,0,0,0,0,0,0,0,0,0,0,0,0,0,0,0,0,0,0,0,0,0,0,0,0,0,
0,0,0,0,0,0,0,0,0,0,0,0,0,0,0,0,0,0,0,0,0,0,0,0,0,0,0,0,0,0,0,0,0,0,0,0,0,0,0,0,0,0,0,0,0,0,0,0,0,0,0,0,0,0,0,0,0,0,0,0,0,0,0,0,0,0,0,0,0,0,0,0,0,0,0,0,0,0,0,0,
0,0,0,0,0,0,0,0,0,0,0,0,0,0,0,0,0,0,0,0,0,0,0,0,0,0,15,14,14,14,14,14,14,14,16,0,0,0,0,0,0,0,0,0,0,0,0,0,0,0,0,0,0,0,0,0,0,0,0,0,0,0,0,0,0,0,0,0,0,0,0,0,0,0,0,0,0,0,0,0,
0,0,0,0,0,0,0,0,0,0,0,0,0,0,0,0,0,0,0,0,0,0,0,0,0,0,0,0,0,0,0,0,0,0,0,0,0,0,0,0,0,0,0,0,0,0,0,0,0,0,0,0,0,0,0,0,0,0,0,0,0,0,0,0,0,0,0,0,0,0,0,0,0,0,0,0,0,0,0,0,
0,0,0,0,0,0,0,0,0,0,0,0,0,0,0,0,0,0,0,0,0,0,0,0,0,0,0,0,0,0,0,0,0,0,0,0,0,0,0,0,0,0,0,0,0,0,0,0,0,0,0,0,0,0,0,0,0,0,0,0,0,0,0,0,0,0,0,0,0,0,0,0,0,0,0,0,0,0,0,0,
0,0,0,0,0,0,0,0,0,0,0,0,0,0,0,0,0,0,0,0,0,0,0,0,0,0,0,0,0,0,0,0,0,0,0,0,0,0,0,0,0,0,0,0,0,0,0,0,0,0,0,0,0,0,0,0,0,0,0,0,0,0,0,0,0,0,0,0,0,0,0,0,0,0,0,0,0,0,0,0,
0,0,0,0,0,0,0,0,0,0,0,0,0,0,0,0,0,0,0,0,0,0,0,0,0,0,0,0,0,0,0,0,0,0,0,0,0,0,0,0,0,0,0,0,0,0,0,0,0,0,0,0,0,0,0,0,0,0,0,0,0,0,0,0,0,0,0,0,0,0,0,0,0,0,0,0,0,0,0,0,
0,0,0,0,0,0,0,0,0,0,0,0,0,0,0,0,0,0,0,0,0,0,0,0,0,0,0,0,0,0,0,0,0,0,0,0,0,0,0,0,0,0,0,0,0,0,0,0,0,0,0,0,0,0,0,0,0,0,0,0,0,0,0,0,0,0,0,0,0,0,0,0,0,0,0,0,0,0,0,0,
0,0,0,0,0,0,0,0,0,0,0,0,0,0,0,0,0,0,0,0,0,0,0,0,0,0,0,0,0,0,0,0,0,0,0,0,0,0,0,0,0,0,0,0,0,0,0,0,0,0,0,0,0,0,0,0,0,0,0,0,0,0,0,0,0,0,0,0,0,0,0,0,0,0,0,0,0,0,0,0,
23,23,23,23,23,23,23,23,23,23,23,23,23,23,23,23,23,23,23,23,23,23,23,23,23,23,23,23,23,23,23,23,23,23,23,23,23,23,23,23,23,23,23,23,23,23,23,23,23,23,23,23,23,23,23,23,23,23,23,23,23,23,23,23,23,23,23,23,23,23,23,23,23,23,23,23,23,23,23,23,
6,6,5,5,25,5,6,26,6,5,6,25,26,26,6,26,25,25,6,26,25,25,26,26,25,25,26,5,26,25,26,6,6,5,26,25,5,5,25,26,6,6,25,26,6,26,26,25,25,6,6,25,5,5,6,25,5,6,25,25,26,26,25,6,5,26,25,6,5,26,5,26,6,26,6,25,5,26,6,26,
25,5,25,25,26,6,25,26,25,25,6,26,5,5,26,26,25,25,5,25,25,26,5,5,5,6,25,26,25,5,26,25,26,25,25,6,5,25,6,25,6,5,26,26,25,5,26,26,26,5,6,26,5,26,5,6,26,26,25,6,6,6,6,26,25,5,6,5,5,5,6,6,5,25,5,5,6,26,25,5,
26,5,25,5,26,5,6,6,26,25,5,6,26,6,5,26,6,6,26,5,6,25,26,6,25,6,6,25,25,6,26,26,5,6,25,5,25,6,5,25,5,26,6,25,25,6,6,5,6,26,5,6,26,26,25,6,5,26,25,25,6,5,26,6,26,5,26,6,5,5,25,5,5,26,6,26,26,26,26,6
</data>
 </layer>
 <objectgroup id="4" name="Objects">
  <object id="1" name="life" gid="45" x="541.5" y="188.5" width="18" height="18"/>
  <object id="2" name="life" gid="45" x="912" y="213" width="18" height="18"/>
  <object id="3" name="life" gid="45" x="1106" y="246.5" width="18" height="18"/>
  <object id="4" name="flag" gid="2147483760" x="1332" y="253" width="18" height="18"/>
 </objectgroup>
</map>
