<?xml version="1.0" encoding="UTF-8"?>
<map version="1.10" tiledversion="1.11.2" orientation="orthogonal" renderorder="right-down" width="60" height="40" tilewidth="18" tileheight="18" infinite="0" nextlayerid="4" nextobjectid="1">
 <editorsettings>
  <export target="platformer-Title.tmj" format="json"/>
 </editorsettings>
 <tileset firstgid="1" name="tilemap2_packed" tilewidth="18" tileheight="18" tilecount="180" columns="20">
  <image source="../../Platformer/assets/tilemap2_packed.png" width="360" height="162"/>
 </tileset>
 <tileset firstgid="181" name="tilemap-backgrounds_packed" tilewidth="21" tileheight="21" tilecount="27" columns="9">
  <image source="tilemap-backgrounds_packed.png" width="192" height="72"/>
 </tileset>
 <layer id="1" name="Background" width="60" height="40">
  <data encoding="csv">
182,183,184,181,182,183,181,181,181,182,183,184,181,182,183,184,183,184,182,183,184,184,183,184,183,184,183,184,181,182,183,184,182,183,184,182,183,184,182,183,181,181,181,181,181,181,181,181,181,181,181,181,181,181,181,181,181,181,181,181,
182,183,181,182,183,184,181,182,181,182,183,181,181,182,183,184,184,184,183,184,183,184,184,182,183,184,183,184,181,182,183,184,182,183,184,182,183,184,182,183,181,181,181,181,181,181,181,181,181,181,181,181,181,181,181,181,181,181,181,181,
182,183,181,182,183,181,182,183,181,182,183,181,181,182,183,184,184,184,183,184,183,184,184,182,183,184,183,184,181,182,183,184,182,183,184,182,183,184,182,183,181,181,181,181,181,181,181,181,181,181,181,181,181,181,181,181,181,181,181,181,
182,183,181,182,181,182,183,181,182,183,181,181,181,182,183,184,184,184,184,182,183,184,184,182,183,184,183,184,181,182,183,184,182,183,184,182,183,184,182,183,181,181,181,181,181,181,181,181,181,181,181,181,181,181,181,181,181,181,181,181,
182,181,182,181,181,182,183,184,184,181,181,182,181,182,183,184,183,184,181,182,183,184,182,183,184,182,183,184,181,182,183,184,182,183,184,182,183,184,182,183,181,181,181,181,181,181,181,181,181,181,181,181,181,181,181,181,181,181,181,181,
182,181,181,181,182,183,184,181,181,181,182,183,181,182,183,184,184,184,183,181,181,182,183,184,184,182,183,184,181,182,183,184,182,183,184,182,183,184,182,183,181,181,181,181,181,181,181,181,181,181,181,181,181,181,181,181,181,181,181,181,
182,183,181,181,182,181,182,183,184,182,183,184,181,181,182,183,184,182,183,181,181,182,183,184,184,182,183,184,182,183,184,184,182,183,184,181,182,183,184,183,181,181,181,181,181,181,181,181,181,181,181,181,181,181,181,181,181,181,181,181,
182,183,181,181,182,181,182,183,184,184,184,184,182,181,182,183,184,182,181,181,182,183,184,183,184,182,183,184,182,183,184,181,182,183,184,181,182,183,184,183,181,181,181,181,181,181,181,181,181,181,181,181,181,181,181,181,181,181,181,181,
182,183,181,181,182,183,181,182,183,184,184,181,181,181,182,183,184,182,181,181,182,183,184,183,184,183,184,184,182,183,184,181,182,183,184,181,182,183,184,183,181,181,181,181,181,181,181,181,181,181,181,181,181,181,181,181,181,181,181,181,
182,183,181,181,182,183,181,182,183,184,183,181,181,182,183,184,181,182,181,182,183,184,182,183,184,184,184,181,182,183,184,181,182,183,184,181,182,183,184,183,181,181,181,181,181,181,181,181,181,181,181,181,181,181,181,181,181,181,181,181,
182,183,181,181,181,182,181,182,183,184,181,181,182,183,184,181,181,182,183,184,182,183,184,184,184,183,184,184,182,183,184,181,182,183,184,181,182,183,184,183,181,181,181,181,181,181,181,181,181,181,181,181,181,181,181,181,181,181,181,181,
182,181,181,182,181,181,181,182,183,181,181,181,181,181,181,181,181,181,181,181,181,181,182,183,184,182,183,184,182,183,184,182,183,184,181,182,183,184,184,183,181,181,181,181,181,181,181,181,181,181,181,181,181,181,181,181,181,181,181,181,
182,181,182,183,184,184,184,184,184,184,184,184,184,184,184,184,184,184,184,184,184,184,184,184,184,182,183,184,184,184,184,182,183,184,184,184,184,184,182,183,181,181,181,181,181,181,181,181,181,181,181,181,181,181,181,181,181,181,181,181,
181,181,181,181,181,181,181,181,181,181,181,181,181,181,181,181,181,181,181,181,181,181,181,181,181,181,181,181,181,181,181,181,181,181,181,181,181,181,182,183,181,181,181,181,181,181,181,181,181,181,181,181,181,181,181,181,181,181,181,181,
181,181,181,181,181,181,181,181,181,181,181,181,181,181,181,181,181,181,181,181,181,181,181,181,181,181,181,181,181,181,181,181,181,181,181,181,181,181,181,181,181,181,181,181,181,181,181,181,181,181,181,181,181,181,181,181,181,181,181,181,
181,181,181,181,181,181,181,181,181,181,181,181,181,181,181,181,181,181,181,181,181,181,181,181,181,181,181,181,181,181,181,181,181,181,181,181,181,181,181,181,181,181,181,181,181,181,181,181,181,181,181,181,181,181,181,181,181,181,181,181,
181,181,181,181,181,181,181,181,181,181,181,181,181,181,181,181,181,181,181,181,181,181,181,181,181,181,181,181,181,181,181,181,181,181,181,181,181,181,181,181,181,181,181,181,181,181,181,181,181,181,181,181,181,181,181,181,181,181,181,181,
181,181,181,181,181,181,181,181,181,181,181,181,181,181,181,181,181,181,181,181,181,181,181,181,181,181,181,181,181,181,181,181,181,181,181,181,181,181,181,181,181,181,181,181,181,181,181,181,181,181,181,181,181,181,181,181,181,181,181,181,
181,181,181,181,181,181,181,181,181,181,181,181,181,181,181,181,181,181,181,181,181,181,181,181,181,181,181,181,181,181,181,181,181,181,181,181,181,181,181,181,181,181,181,181,181,181,181,181,181,181,181,181,181,181,181,181,181,181,181,181,
181,181,181,181,181,181,181,181,181,181,181,181,181,181,181,181,181,181,181,181,181,181,181,181,181,181,181,181,181,181,181,181,181,181,181,181,181,181,181,181,181,181,181,181,181,181,181,181,181,181,181,181,181,181,181,181,181,181,181,181,
181,181,181,181,181,181,181,181,181,181,181,181,181,181,181,181,181,181,181,181,181,181,181,181,181,181,181,181,181,181,181,181,181,181,181,181,181,181,181,181,181,181,181,181,181,181,181,181,181,181,181,181,181,181,181,181,181,181,181,181,
181,181,181,181,181,181,181,181,181,181,181,181,181,181,181,181,181,181,181,181,181,181,181,181,181,181,181,181,181,181,181,181,181,181,181,181,181,181,181,181,181,181,181,181,181,181,181,181,181,181,181,181,181,181,181,181,181,181,181,181,
181,181,181,181,181,181,181,181,181,181,181,181,181,181,181,181,181,181,181,181,181,181,181,181,181,181,181,181,181,181,181,181,181,181,181,181,181,181,181,181,181,181,181,181,181,181,181,181,181,181,181,181,181,181,181,181,181,181,181,181,
181,181,181,181,181,181,181,181,181,181,181,181,181,181,181,181,181,181,181,181,181,181,181,181,181,181,181,181,181,181,181,181,181,181,181,181,181,181,181,181,181,181,181,181,181,181,181,181,181,181,181,181,181,181,181,181,181,181,181,181,
181,181,181,181,181,181,181,181,181,181,181,181,181,181,181,181,181,181,181,181,181,181,181,181,181,181,181,181,181,181,181,181,181,181,181,181,181,181,181,181,181,181,181,181,181,181,181,181,181,181,181,181,181,181,181,181,181,181,181,181,
181,181,181,181,181,181,181,181,181,181,181,181,181,181,181,181,181,181,181,181,181,181,181,181,181,181,181,181,181,181,181,181,181,181,181,181,181,181,181,181,181,181,181,181,181,181,181,181,181,181,181,181,181,181,181,181,181,181,181,181,
181,181,181,181,181,181,181,181,181,181,181,181,181,181,181,181,181,181,181,181,181,181,181,181,181,181,181,181,181,181,181,181,181,181,181,181,181,181,181,181,181,181,181,181,181,181,181,181,181,181,181,181,181,181,181,181,181,181,181,181,
181,181,181,181,181,181,181,181,181,181,181,181,181,181,181,181,181,181,181,181,181,181,181,181,181,181,181,181,181,181,181,181,181,181,181,181,181,181,181,181,181,181,181,181,181,181,181,181,181,181,181,181,181,181,181,181,181,181,181,181,
181,181,181,181,181,181,181,181,181,181,181,181,181,181,181,181,181,181,181,181,181,181,181,181,181,181,181,181,181,181,181,181,181,181,181,181,181,181,181,181,181,181,181,181,181,181,181,181,181,181,181,181,181,181,181,181,181,181,181,181,
181,181,181,181,181,181,181,181,181,181,181,181,181,181,181,181,181,181,181,181,181,181,181,181,181,181,181,181,181,181,181,181,181,181,181,181,181,181,181,181,181,181,181,181,181,181,181,181,181,181,181,181,181,181,181,181,181,181,181,181,
181,181,181,181,181,181,181,181,181,181,181,181,181,181,181,181,181,181,181,181,181,181,181,181,181,181,181,181,181,181,181,181,181,181,181,181,181,181,181,181,181,181,181,181,181,181,181,181,181,181,181,181,181,181,181,181,181,181,181,181,
181,181,181,181,181,181,181,181,181,181,181,181,181,181,181,181,181,181,181,181,181,181,181,181,181,181,181,181,181,181,181,181,181,181,181,181,181,181,181,181,181,181,181,181,181,181,181,181,181,181,181,181,181,181,181,181,181,181,181,181,
181,181,181,181,181,181,181,181,181,181,181,181,181,181,181,181,181,181,181,181,181,181,181,181,181,181,181,181,181,181,181,181,181,181,181,181,181,181,181,181,181,181,181,181,181,181,181,181,181,181,181,181,181,181,181,181,181,181,181,181,
181,181,181,181,181,181,181,181,181,181,181,181,181,181,181,181,181,181,181,181,181,181,181,181,181,181,181,181,181,181,181,181,181,181,181,181,181,181,181,181,181,181,181,181,181,181,181,181,181,181,181,181,181,181,181,181,181,181,181,181,
181,181,181,181,181,181,181,181,181,181,181,181,181,181,181,181,181,181,181,181,181,181,181,181,181,181,181,181,181,181,181,181,181,181,181,181,181,181,181,181,181,181,181,181,181,181,181,181,181,181,181,181,181,181,181,181,181,181,181,181,
181,181,181,181,181,181,181,181,181,181,181,181,181,181,181,181,181,181,181,181,181,181,181,181,181,181,181,181,181,181,181,181,181,181,181,181,181,181,181,181,181,181,181,181,181,181,181,181,181,181,181,181,181,181,181,181,181,181,181,181,
181,181,181,181,181,181,181,181,181,181,181,181,181,181,181,181,181,181,181,181,181,181,181,181,181,181,181,181,181,181,181,181,181,181,181,181,181,181,181,181,181,181,181,181,181,181,181,181,181,181,181,181,181,181,181,181,181,181,181,181,
181,181,181,181,181,181,181,181,181,181,181,181,181,181,181,181,181,181,181,181,181,181,181,181,181,181,181,181,181,181,181,181,181,181,181,181,181,181,181,181,181,181,181,181,181,181,181,181,181,181,181,181,181,181,181,181,181,181,181,181,
181,181,181,181,181,181,181,181,181,181,181,181,181,181,181,181,181,181,181,181,181,181,181,181,181,181,181,181,181,181,181,181,181,181,181,181,181,181,181,181,181,181,181,181,181,181,181,181,181,181,181,181,181,181,181,181,181,181,181,181,
181,181,181,181,181,181,181,181,181,181,181,181,181,181,181,181,181,181,181,181,181,181,181,181,181,181,181,181,181,181,181,181,181,181,181,181,181,181,181,181,181,181,181,181,181,181,181,181,181,181,181,181,181,181,181,181,181,181,181,181
</data>
 </layer>
 <layer id="3" name="Background2" width="60" height="40" offsetx="22" offsety="0">
  <data encoding="csv">
0,0,0,0,0,0,0,0,0,0,0,0,0,0,0,0,0,0,0,0,0,0,0,0,0,0,0,0,0,0,0,0,0,0,0,0,0,0,0,0,0,0,0,0,0,0,0,0,0,0,0,0,0,0,0,0,0,0,0,0,
0,0,0,0,0,0,0,0,0,0,0,0,0,0,0,0,0,0,0,0,0,0,0,0,0,0,0,0,0,0,0,0,0,0,0,0,0,0,0,0,0,0,0,0,0,1073741978,1073741979,1073741980,0,0,0,0,0,0,0,0,0,0,0,0,
0,0,0,0,0,0,0,0,0,0,0,0,0,0,0,0,0,1073741978,1073741979,1073741980,0,0,0,0,0,0,0,0,0,0,0,0,0,0,0,0,0,0,0,0,0,0,0,0,0,0,0,0,0,0,0,0,0,0,0,1073741978,1073741979,1073741980,0,0,
0,0,0,0,0,0,0,0,0,0,0,0,0,0,0,0,0,0,0,0,0,0,0,0,0,0,0,0,0,0,0,0,0,0,0,0,0,0,0,0,0,0,0,0,0,0,0,0,0,0,0,0,0,0,0,0,0,0,0,0,
0,0,0,0,0,1073741978,1073741979,1073741980,0,0,0,0,0,0,1073741978,1073741979,1073741980,0,0,0,0,0,0,0,0,0,0,1073741978,1073741979,1073741980,0,0,0,0,1073741978,1073741979,1073741980,0,0,0,0,0,0,0,0,0,0,0,0,0,0,0,0,0,0,0,0,0,0,0,
0,0,0,0,0,0,0,0,0,0,0,0,0,0,0,0,0,0,0,0,0,0,0,0,0,0,0,0,0,0,0,0,0,0,0,0,0,0,0,0,0,0,0,0,0,0,0,0,0,1073741978,1073741979,1073741980,0,0,0,0,0,0,0,0,
0,0,0,0,0,0,0,0,0,0,0,0,0,0,0,0,0,0,0,0,0,0,0,0,0,0,0,0,0,0,0,0,0,0,0,0,0,0,0,0,0,0,0,0,0,0,0,0,0,0,0,0,0,0,0,0,0,0,0,0,
0,0,0,0,0,0,0,0,0,0,0,0,0,0,0,0,0,0,0,0,0,0,0,0,0,0,0,0,0,0,0,0,0,0,0,0,0,0,0,0,0,0,0,0,0,0,0,0,0,0,0,0,0,0,0,0,0,0,0,0,
0,0,0,0,0,0,0,0,0,0,1073741978,1073741979,1073741980,0,0,0,0,0,0,0,0,0,0,0,0,0,0,0,0,0,0,0,0,0,0,0,0,0,0,0,0,0,0,0,0,0,69,69,0,0,0,0,0,0,0,1073741978,1073741979,1073741980,0,0,
0,0,1073741978,1073741979,1073741980,0,0,0,0,0,0,0,0,0,0,0,0,0,0,0,1073741978,1073741979,1073741980,0,0,0,0,0,0,0,0,0,0,0,0,0,0,0,0,0,0,0,0,0,0,69,69,69,69,0,0,0,0,0,0,0,0,0,0,0,
0,0,0,0,0,0,0,0,0,0,0,0,0,0,0,0,0,0,0,0,0,0,0,0,0,0,0,0,0,0,0,0,1073741978,1073741979,1073741980,0,0,0,0,0,0,0,0,0,0,69,69,69,69,1073741980,0,0,0,0,0,0,0,0,0,0,
0,0,0,0,0,0,0,0,0,0,0,0,0,0,0,0,0,0,0,0,0,0,0,0,0,0,0,0,0,0,0,0,0,0,0,0,0,0,0,1073741978,1073741979,1073741980,0,0,0,69,69,69,69,0,0,0,0,0,0,0,0,0,0,0,
0,0,0,0,0,0,0,91,92,92,92,92,92,93,0,0,0,0,0,0,0,0,0,0,0,0,0,0,0,0,0,0,0,0,0,0,0,0,0,0,0,0,0,0,0,69,69,69,69,0,0,0,0,0,0,0,0,0,0,0,
0,0,0,0,0,0,0,91,92,92,92,92,92,93,0,0,0,0,0,0,45,45,45,45,0,0,0,0,0,45,45,45,45,0,0,0,0,0,0,0,0,0,0,0,0,69,69,69,69,0,0,0,0,0,0,0,0,0,0,0,
0,0,0,0,0,0,0,0,0,70,70,70,0,0,0,0,0,0,0,45,45,45,45,45,45,0,0,0,45,45,45,45,45,45,0,0,0,0,0,0,0,0,0,0,0,69,69,69,69,0,0,0,0,0,0,0,0,0,0,0,
0,0,0,0,0,0,0,0,0,90,90,90,0,0,0,0,0,0,45,45,45,45,45,45,45,45,0,45,45,45,45,45,45,45,45,0,0,0,0,0,0,0,0,0,0,69,69,69,69,0,0,0,0,0,0,0,0,0,0,0,
0,0,0,0,0,0,0,0,0,90,90,90,0,0,0,0,0,45,45,45,45,45,45,45,45,45,45,45,45,45,45,45,45,45,45,45,0,0,0,0,0,0,0,0,0,69,69,69,69,0,0,0,0,0,0,0,0,0,0,0,
0,0,0,0,0,0,0,0,0,90,90,90,0,0,0,0,45,45,45,45,45,45,45,45,45,45,45,45,45,45,45,45,45,45,45,45,45,0,0,0,0,0,0,0,0,69,69,69,69,0,0,0,0,0,0,1073741978,1073741979,1073741980,0,0,
0,0,0,0,0,0,0,0,0,90,90,90,0,0,0,0,45,45,45,45,45,45,45,45,45,45,45,45,45,45,45,45,45,45,45,45,45,0,0,0,0,0,0,0,0,69,69,69,69,0,0,0,0,0,0,0,0,0,0,0,
0,0,0,0,0,0,0,0,0,90,90,90,0,0,0,0,45,45,45,45,45,45,45,45,45,45,45,45,45,45,45,45,45,45,45,45,45,0,0,0,0,0,0,0,0,69,69,69,69,0,0,0,0,0,0,0,0,0,0,0,
0,0,0,0,0,0,1073741978,1073741979,1073741980,90,90,90,0,0,0,0,45,45,45,45,45,45,45,45,45,45,45,45,45,45,45,45,45,45,45,45,45,0,0,0,0,0,0,0,0,69,69,69,69,0,0,0,0,0,0,0,0,0,0,0,
0,0,0,0,0,0,0,0,0,90,90,90,0,0,0,0,45,45,45,45,45,45,45,45,45,45,45,45,45,45,45,45,45,45,45,45,45,0,0,0,0,0,0,0,0,69,69,69,69,0,0,0,0,0,0,0,0,0,0,0,
0,0,0,0,0,0,0,0,0,90,90,90,0,0,0,0,0,45,45,45,45,45,45,45,45,45,45,45,45,45,45,45,45,45,45,45,0,0,0,0,0,0,0,0,0,69,69,69,69,0,0,0,0,0,0,0,0,0,0,0,
0,0,0,0,0,0,0,0,0,90,90,90,0,0,0,0,0,0,45,45,45,45,45,45,45,45,45,45,45,45,45,45,45,45,45,0,0,0,0,0,0,0,0,0,0,69,69,69,69,1073741978,1073741979,1073741980,0,0,0,0,0,0,0,0,
0,0,0,0,0,0,0,0,0,90,90,90,0,0,0,0,0,0,0,45,45,45,45,45,45,45,45,45,45,45,45,45,45,45,0,0,0,0,0,0,0,0,0,48,48,48,48,48,48,48,48,0,0,0,0,0,0,0,0,0,
0,0,0,0,0,0,0,0,0,90,90,90,0,0,0,0,0,0,0,0,45,45,45,45,45,45,45,45,45,45,45,45,45,0,0,0,0,1073741978,1073741979,1073741980,0,0,0,48,48,48,48,48,48,48,48,0,0,0,0,0,0,0,0,0,
0,0,0,0,0,0,0,0,0,90,90,90,0,0,0,0,0,0,0,0,0,45,45,45,45,45,45,45,45,45,45,45,0,0,0,0,0,0,0,0,0,0,0,0,0,0,48,48,0,0,0,0,0,0,0,0,0,0,0,0,
0,0,1073741978,1073741979,1073741980,0,0,0,0,90,90,90,0,0,0,0,0,0,0,0,0,0,45,45,45,45,45,45,45,45,45,0,0,0,0,0,0,0,0,0,0,0,0,0,0,0,48,48,0,0,0,0,0,0,0,0,0,0,0,0,
0,0,0,0,0,0,0,0,0,110,110,110,0,0,0,0,0,0,0,0,0,0,0,45,45,45,45,45,45,45,0,0,0,0,0,0,0,0,0,0,0,0,0,0,0,0,48,48,0,0,0,0,0,0,1073741978,1073741979,1073741980,0,0,0,
0,0,0,0,0,0,0,91,92,92,92,92,92,93,0,0,0,0,0,0,0,0,0,0,45,45,45,45,45,0,0,0,0,0,0,0,0,0,0,0,0,0,0,0,0,1073741893,1073741893,1073741893,1073741893,0,0,0,0,0,0,0,0,0,0,0,
0,0,0,0,0,0,0,91,92,92,92,92,92,93,0,0,0,0,0,0,0,0,0,0,0,45,45,45,0,0,0,0,0,0,0,0,0,0,0,0,0,0,0,0,1073741893,1073741893,1073741893,1073741893,1073741893,1073741893,0,0,0,0,0,0,0,0,0,0,
0,0,0,0,0,0,0,0,0,0,0,0,0,0,0,0,0,0,0,0,0,0,0,0,0,0,0,0,0,0,0,0,0,0,0,0,0,0,0,0,0,0,0,0,0,0,0,0,0,0,0,0,0,0,0,0,0,0,0,0,
0,0,0,0,0,0,0,0,0,0,0,0,0,0,0,0,0,0,0,0,0,0,0,0,0,0,0,0,1073741978,1073741979,1073741980,0,0,0,0,0,0,1073741978,1073741979,1073741980,0,0,0,0,0,0,0,0,0,0,0,0,0,0,0,0,0,0,0,0,
0,0,0,0,0,0,0,0,1073741978,1073741979,1073741980,0,0,0,0,0,0,0,0,0,0,0,0,0,0,0,0,0,0,0,0,0,0,0,0,0,0,0,0,0,0,0,0,0,0,0,0,1073741978,1073741979,1073741980,0,0,0,0,0,0,0,0,0,0,
0,0,0,0,0,0,0,0,0,0,0,0,0,0,0,0,0,0,1073741978,1073741979,1073741980,0,0,0,0,0,0,0,0,0,0,0,0,0,0,0,0,0,0,0,0,0,0,0,0,0,0,0,0,0,0,0,0,0,0,0,0,0,0,0,
0,0,0,0,0,0,0,0,0,0,0,0,0,0,0,0,0,0,0,0,0,0,0,0,0,0,0,0,0,0,0,0,0,0,0,0,0,0,0,0,0,0,0,0,0,0,0,0,0,0,0,0,0,0,0,0,0,0,0,0,
0,0,0,0,0,0,0,0,0,0,0,0,0,0,0,0,0,0,0,0,0,0,0,0,0,0,0,0,0,0,0,0,0,0,0,0,0,0,0,0,0,0,0,0,0,0,0,0,0,0,0,0,0,0,0,0,0,0,0,0,
0,0,0,0,0,0,0,0,0,0,0,0,0,0,0,0,0,0,0,0,0,0,0,0,0,0,0,0,0,0,0,0,0,0,0,0,0,0,1073741978,1073741979,1073741980,0,0,0,0,0,0,0,0,1073741978,1073741979,1073741980,0,0,0,0,0,0,0,0,
0,0,0,0,1073741978,1073741979,1073741980,0,0,0,0,0,0,0,0,0,0,0,0,0,0,0,0,0,0,0,1073741978,1073741979,1073741980,0,0,0,0,0,0,0,0,0,0,0,0,0,0,0,0,0,0,0,0,0,0,0,0,0,0,0,0,0,0,0,
0,0,0,0,0,0,0,0,0,0,0,0,0,0,0,0,0,0,0,0,0,0,0,0,0,0,0,0,0,0,0,0,0,0,0,0,0,0,0,0,0,0,0,0,0,0,0,0,0,0,0,0,0,0,0,0,0,0,0,0
</data>
 </layer>
</map>
